(.../nezinau/eagle/ulp/pcb-gcode.ulp)
(Copyright 2005 - 2009 by John Johnson)
(See readme.txt for licensing terms.)
(This file generated from the board:)
(.../nezinau/eagle/car_antenna/driver.brd)
(Current profile is .../eagle/ulp/profiles/generic.pp  )
(This file generated 11/16/12 2:08 PM)
( Tool|       Size       |  Min Sub |  Max Sub |   Count )
( T01  0.500mm 0.0197in 0.0000in 0.0000in )
( T02  0.813mm 0.0320in 0.0000in 0.0000in )
( T03  0.914mm 0.0360in 0.0000in 0.0000in )
( T04  1.016mm 0.0400in 0.0000in 0.0000in )
( T05  1.200mm 0.0472in 0.0000in 0.0000in )
G21
(Absolute Coordinates)
G90
M05
G00 Z0.0000 
G00 X0.0000 Y0.0000 
M06 T01  ; 0.5000 
G00 Z2.0000 
M03
G04 P0.000000
G00 X-38.2700 Y6.0000 
G01 Z-2.0000 F150.00 
G00 Z2.0000 
G00 X-38.2700 Y2.0000 
G01 Z-2.0000 F150.00 
G00 Z2.0000 
G00 X-4.5400 Y7.0000 
G01 Z-2.0000 F150.00 
G00 Z2.0000 
G00 X-4.5400 Y17.4450 
G01 Z-2.0000 F150.00 
G00 Z2.0000 
G00 X-59.1300 Y27.3900 
G01 Z-2.0000 F150.00 
G00 Z2.0000 
G00 X-59.5900 Y31.2000 
G01 Z-2.0000 F150.00 
G00 Z2.0000 
G00 X-5.9860 Y38.2748 
G01 Z-2.0000 F150.00 
G00 Z2.0000 
G00 X-5.9860 Y2.2748 
G01 Z-2.0000 F150.00 
G00 Z2.0000 
G00 X-60.5900 Y35.2000 
G01 Z-2.0000 F150.00 
G00 Z2.0000 
G00 X-22.9860 Y20.2748 
G01 Z-2.0000 F150.00 
G00 Z2.0000 
M05
G00 Z0.0000 
G00 X0.0000 Y0.0000 
M06 T02  ; 0.8128 
G00 Z2.0000 
M03
G04 P0.000000
G00 X-35.5800 Y6.5800 
G01 Z-2.0000 F150.00 
G00 Z2.0000 
G00 X-35.5800 Y1.5000 
G01 Z-2.0000 F150.00 
G00 Z2.0000 
G00 X-46.6850 Y32.9950 
G01 Z-2.0000 F150.00 
G00 Z2.0000 
G00 X-46.6850 Y35.5350 
G01 Z-2.0000 F150.00 
G00 Z2.0000 
G00 X-46.6850 Y5.0550 
G01 Z-2.0000 F150.00 
G00 Z2.0000 
G00 X-46.6850 Y7.5950 
G01 Z-2.0000 F150.00 
G00 Z2.0000 
G00 X-46.6850 Y17.7550 
G01 Z-2.0000 F150.00 
G00 Z2.0000 
G00 X-46.6850 Y20.2950 
G01 Z-2.0000 F150.00 
G00 Z2.0000 
G00 X-46.6850 Y2.5150 
G01 Z-2.0000 F150.00 
G00 Z2.0000 
G00 X-46.6850 Y30.4550 
G01 Z-2.0000 F150.00 
G00 Z2.0000 
G00 X-54.3050 Y32.9950 
G01 Z-2.0000 F150.00 
G00 Z2.0000 
G00 X-54.3050 Y35.5350 
G01 Z-2.0000 F150.00 
G00 Z2.0000 
G00 X-54.3050 Y7.5950 
G01 Z-2.0000 F150.00 
G00 Z2.0000 
G00 X-54.3050 Y10.1350 
G01 Z-2.0000 F150.00 
G00 Z2.0000 
G00 X-54.3050 Y12.6750 
G01 Z-2.0000 F150.00 
G00 Z2.0000 
G00 X-54.3050 Y15.2150 
G01 Z-2.0000 F150.00 
G00 Z2.0000 
G00 X-54.3050 Y17.7550 
G01 Z-2.0000 F150.00 
G00 Z2.0000 
G00 X-54.3050 Y20.2950 
G01 Z-2.0000 F150.00 
G00 Z2.0000 
G00 X-54.3050 Y2.5150 
G01 Z-2.0000 F150.00 
G00 Z2.0000 
G00 X-54.3050 Y25.3750 
G01 Z-2.0000 F150.00 
G00 Z2.0000 
G00 X-54.3050 Y30.4550 
G01 Z-2.0000 F150.00 
G00 Z2.0000 
M05
G00 Z0.0000 
G00 X0.0000 Y0.0000 
M06 T03  ; 0.9144 
G00 Z2.0000 
M03
G04 P0.000000
G00 X-9.6350 Y6.7300 
G01 Z-2.0000 F150.00 
G00 Z2.0000 
G00 X-9.6350 Y14.3500 
G01 Z-2.0000 F150.00 
G00 Z2.0000 
M05
G00 Z0.0000 
G00 X0.0000 Y0.0000 
M06 T04  ; 1.0160 
G00 Z2.0000 
M03
G04 P0.000000
G00 X-34.3500 Y33.2550 
G01 Z-2.0000 F150.00 
G00 Z2.0000 
G00 X-35.7550 Y38.5650 
G01 Z-2.0000 F150.00 
G00 Z2.0000 
G00 X-36.5400 Y9.3650 
G01 Z-2.0000 F150.00 
G00 Z2.0000 
G00 X-36.5400 Y12.5000 
G01 Z-2.0000 F150.00 
G00 Z2.0000 
G00 X-36.7150 Y19.4600 
G01 Z-2.0000 F150.00 
G00 Z2.0000 
G00 X-39.7400 Y25.7250 
G01 Z-2.0000 F150.00 
G00 Z2.0000 
G00 X-44.4050 Y17.7750 
G01 Z-2.0000 F150.00 
G00 Z2.0000 
G00 X-44.4050 Y20.3150 
G01 Z-2.0000 F150.00 
G00 Z2.0000 
G00 X-44.4950 Y33.0250 
G01 Z-2.0000 F150.00 
G00 Z2.0000 
G00 X-44.4950 Y35.5650 
G01 Z-2.0000 F150.00 
G00 Z2.0000 
G00 X-44.4950 Y30.4850 
G01 Z-2.0000 F150.00 
G00 Z2.0000 
G00 X-56.5600 Y7.7050 
G01 Z-2.0000 F150.00 
G00 Z2.0000 
G00 X-56.5600 Y10.2450 
G01 Z-2.0000 F150.00 
G00 Z2.0000 
G00 X-56.5600 Y12.7850 
G01 Z-2.0000 F150.00 
G00 Z2.0000 
G00 X-56.5900 Y17.6600 
G01 Z-2.0000 F150.00 
G00 Z2.0000 
G00 X-7.7450 Y24.4350 
G01 Z-2.0000 F150.00 
G00 Z2.0000 
G00 X-7.7450 Y29.5150 
G01 Z-2.0000 F150.00 
G00 Z2.0000 
G00 X-13.6150 Y33.6800 
G01 Z-2.0000 F150.00 
G00 Z2.0000 
G00 X-16.7400 Y2.5150 
G01 Z-2.0000 F150.00 
G00 Z2.0000 
G00 X-16.7400 Y25.3750 
G01 Z-2.0000 F150.00 
G00 Z2.0000 
G00 X-18.6950 Y33.6800 
G01 Z-2.0000 F150.00 
G00 Z2.0000 
G00 X-26.2000 Y33.3950 
G01 Z-2.0000 F150.00 
G00 Z2.0000 
G00 X-26.2000 Y28.3150 
G01 Z-2.0000 F150.00 
G00 Z2.0000 
G00 X-26.2000 Y30.8550 
G01 Z-2.0000 F150.00 
G00 Z2.0000 
G00 X-30.5400 Y28.1900 
G01 Z-2.0000 F150.00 
G00 Z2.0000 
M05
G00 Z0.0000 
G00 X0.0000 Y0.0000 
M06 T05  ; 1.2000 
G00 Z2.0000 
M03
G04 P0.000000
G00 X-32.9500 Y5.8300 
G01 Z-2.0000 F150.00 
G00 Z2.0000 
G00 X-32.9500 Y9.2300 
G01 Z-2.0000 F150.00 
G00 Z2.0000 
G00 X-32.9500 Y12.6300 
G01 Z-2.0000 F150.00 
G00 Z2.0000 
G00 X-32.9500 Y16.0300 
G01 Z-2.0000 F150.00 
G00 Z2.0000 
G00 X-32.9500 Y19.4300 
G01 Z-2.0000 F150.00 
G00 Z2.0000 
G00 X-32.9500 Y2.4300 
G01 Z-2.0000 F150.00 
G00 Z2.0000 
G00 X-27.8700 Y4.1300 
G01 Z-2.0000 F150.00 
G00 Z2.0000 
G00 X-27.8700 Y7.5300 
G01 Z-2.0000 F150.00 
G00 Z2.0000 
G00 X-27.8700 Y10.9300 
G01 Z-2.0000 F150.00 
G00 Z2.0000 
G00 X-27.8700 Y14.3300 
G01 Z-2.0000 F150.00 
G00 Z2.0000 
G00 X-27.8700 Y17.7300 
G01 Z-2.0000 F150.00 
G00 Z2.0000 
T01 
G00 Z10.0000 
M05
M02
