(.../nezinau/eagle/ulp/pcb-gcode.ulp)
(Copyright 2005 - 2009 by John Johnson)
(See readme.txt for licensing terms.)
(This file generated from the board:)
(.../nezinau/eagle/car_antenna/driver.brd)
(Current profile is .../eagle/ulp/profiles/generic.pp  )
(This file generated 11/18/12 2:57 PM)
G21
(Absolute Coordinates)
G90
G00 X0.0000 Y0.0000 
M03
G04 P0.000000
G00 Z2.0000 
G00 X-9.1430 Y28.9359 
G01 Z-0.3000 F100.00 
G01 X-8.3241 Y28.1170 F50.00 
G01 X-8.1250 Y28.1170 
G01 X-8.3232 Y28.1190 
G01 X-9.1410 Y28.9368 
G01 X-9.1410 Y29.1350 
G01 X-9.1430 Y28.9359 
G00 Z2.0000 
G00 X-6.3470 Y30.0941 
G01 Z-0.3000 F100.00 
G01 X-7.1659 Y30.9130 F50.00 
G01 X-7.1883 Y30.9130 
G01 X-7.1668 Y30.9110 
G01 X-6.3490 Y30.0932 
G01 X-6.3490 Y29.8950 
G01 X-6.3470 Y30.0941 
G00 Z2.0000 
G00 X-6.3470 Y29.1350 
G01 Z-0.3000 F100.00 
G01 X-6.3490 Y29.1350 F50.00 
G01 X-6.3490 Y28.9368 
G01 X-6.3996 Y28.8862 
G01 X-6.3470 Y28.9359 
G01 X-6.3470 Y29.1350 
G00 Z2.0000 
G00 X-9.1430 Y29.8950 
G01 Z-0.3000 F100.00 
G01 X-9.1410 Y29.8950 F50.00 
G01 X-9.1410 Y30.0932 
G01 X-8.6354 Y30.5988 
G01 X-9.1430 Y30.0941 
G01 X-9.1430 Y29.8950 
G00 Z2.0000 
G00 X-5.4070 Y36.8768 
G01 Z-0.3000 F100.00 
G01 X-4.5880 Y37.6957 F50.00 
G01 X-4.5880 Y37.9456 
G01 X-4.5900 Y37.6966 
G01 X-5.4078 Y36.8788 
G01 X-5.6568 Y36.8788 
G01 X-5.4070 Y36.8768 
G00 Z2.0000 
G00 X-6.3152 Y36.8788 
G01 Z-0.3000 F100.00 
G01 X-6.4854 Y36.8788 F50.00 
G01 X-6.4874 Y36.8768 
G01 X-6.3152 Y36.8768 
G00 Z2.0000 
G00 X-7.3820 Y37.7754 
G01 Z-0.3000 F100.00 
G01 X-7.3820 Y37.9310 F50.00 
G01 X-7.3840 Y37.9310 
G01 X-7.3840 Y37.7734 
G00 Z2.0000 
G00 X-35.2548 Y37.3575 
G01 Z-0.3000 F100.00 
G01 X-34.6813 Y37.9310 F50.00 
G01 X-34.6842 Y37.9310 
G01 X-35.2557 Y37.3595 
G01 X-35.3750 Y37.3595 
G01 X-35.2548 Y37.3575 
G00 Z2.0000 
G00 X-36.2552 Y37.3575 
G01 Z-0.3000 F100.00 
G01 X-36.1350 Y37.3575 F50.00 
G01 X-36.1350 Y37.3595 
G01 X-36.2543 Y37.3595 
G01 X-36.8258 Y37.9310 
G01 X-36.2552 Y37.3575 
G00 Z2.0000 
G00 X-4.2108 Y8.2202 
G01 Z-0.3000 F100.00 
G01 X-4.2108 Y8.2182 F50.00 
G01 X-4.1084 Y8.2182 
G01 X-4.2108 Y8.2202 
G00 Z2.0000 
G00 X-5.7602 Y6.4946 
G01 Z-0.3000 F100.00 
G01 X-5.1740 Y5.9084 F50.00 
G01 X-5.1740 Y5.9112 
G01 X-5.7582 Y6.4954 
G01 X-5.7582 Y6.6708 
G01 X-5.7602 Y6.4946 
G00 Z2.0000 
G00 X-13.2350 Y35.0780 
G01 Z-0.3000 F100.00 
G01 X-13.2350 Y35.0760 F50.00 
G01 X-13.0368 Y35.0760 
G01 X-12.2498 Y34.2890 
G01 X-13.0359 Y35.0780 
G01 X-13.2350 Y35.0780 
G00 Z2.0000 
G00 X-15.0130 Y33.1009 
G01 Z-0.3000 F100.00 
G01 X-14.2490 Y32.3369 F50.00 
G01 X-14.2490 Y32.3398 
G01 X-15.0110 Y33.1018 
G01 X-15.0110 Y33.3000 
G01 X-15.0130 Y33.1009 
G00 Z2.0000 
G00 X-15.0130 Y34.2591 
G01 Z-0.3000 F100.00 
G01 X-15.0130 Y34.0600 F50.00 
G01 X-15.0110 Y34.0600 
G01 X-15.0110 Y34.2582 
G01 X-14.1932 Y35.0760 
G01 X-13.9950 Y35.0760 
G01 X-14.1941 Y35.0780 
G01 X-15.0130 Y34.2591 
G00 Z2.0000 
G00 X-12.2969 Y33.0210 
G01 Z-0.3000 F100.00 
G01 X-12.2998 Y33.0210 F50.00 
G01 X-12.9810 Y32.3398 
G01 X-12.2969 Y33.0210 
G00 Z2.0000 
G00 X-5.7602 Y7.3292 
G01 Z-0.3000 F100.00 
G01 X-5.7582 Y7.3292 F50.00 
G01 X-5.7582 Y7.5046 
G01 X-5.0446 Y8.2182 
G01 X-4.8692 Y8.2182 
G01 X-5.0454 Y8.2202 
G01 X-5.7602 Y7.5054 
G01 X-5.7602 Y7.3292 
G00 Z2.0000 
G00 X-3.3198 Y6.6708 
G01 Z-0.3000 F100.00 
G01 X-3.3218 Y6.6708 F50.00 
G01 X-3.3218 Y6.4954 
G01 X-3.9060 Y5.9112 
G01 X-3.3198 Y6.4946 
G01 X-3.3198 Y6.6708 
G00 Z2.0000 
G00 X-40.7640 Y38.5760 
G01 Z-0.3000 F100.00 
G01 X-40.7620 Y38.5760 F50.00 
G01 X-40.7620 Y38.7360 
G01 X-40.7640 Y38.5760 
G00 Z2.0000 
G00 X-25.2643 Y19.0360 
G01 Z-0.3000 F100.00 
G01 X-25.0371 Y19.0360 F50.00 
G01 X-25.0363 Y19.0380 
G01 X-25.2569 Y19.0380 
G00 Z2.0000 
G00 X-24.3840 Y19.7734 
G01 Z-0.3000 F100.00 
G01 X-24.3820 Y19.7754 F50.00 
G01 X-24.3820 Y19.9456 
G01 X-24.3840 Y19.7734 
G00 Z2.0000 
G00 X-22.4070 Y18.8768 
G01 Z-0.3000 F100.00 
G01 X-22.3602 Y18.9236 F50.00 
G01 X-22.3616 Y18.9250 
G01 X-22.4078 Y18.8788 
G01 X-22.6568 Y18.8788 
G01 X-22.4070 Y18.8768 
G00 Z2.0000 
G00 X-23.4462 Y18.7497 
G01 Z-0.3000 F100.00 
G01 X-23.3849 Y18.8110 F50.00 
G01 X-23.3849 Y18.8110 
G01 X-23.3518 Y18.8302 
G01 X-23.3152 Y18.8513 
G01 X-23.3152 Y18.8788 
G01 X-23.4854 Y18.8788 
G01 X-23.5140 Y18.8502 
G01 X-23.5140 Y18.7110 
G01 X-23.4686 Y18.7110 
G01 X-23.4462 Y18.7497 
G00 Z2.0000 
G00 X-26.6089 Y11.8936 
G01 Z-0.3000 F100.00 
G01 X-26.6181 Y11.8948 F50.00 
G01 X-26.5166 Y11.8527 
G01 X-26.5754 Y11.8827 
G01 X-26.6089 Y11.8936 
G00 Z2.0000 
G00 X-26.1564 Y11.5592 
G01 Z-0.3000 F100.00 
G01 X-26.0738 Y11.4355 F50.00 
G01 X-26.0908 Y11.4688 
G01 X-26.1564 Y11.5592 
G00 Z2.0000 
G00 X-26.3003 Y11.7141 
G01 Z-0.3000 F100.00 
G01 X-26.3107 Y11.7216 F50.00 
G01 X-26.1784 Y11.5893 
G01 X-26.1859 Y11.5997 
G01 X-26.3003 Y11.7141 
G00 Z2.0000 
G00 X-26.4644 Y11.8262 
G01 Z-0.3000 F100.00 
G01 X-26.3408 Y11.7436 F50.00 
G01 X-26.4312 Y11.8092 
G01 X-26.4644 Y11.8262 
G00 Z2.0000 
G00 X-26.2852 Y10.1610 
G01 Z-0.3000 F100.00 
G01 X-26.2880 Y10.1610 F50.00 
G01 X-26.3057 Y10.1434 
G01 X-26.2852 Y10.1610 
G00 Z2.0000 
G00 X-22.2760 Y10.9262 
G01 Z-0.3000 F100.00 
G01 X-22.2740 Y10.9262 F50.00 
G01 X-22.2740 Y10.9665 
G01 X-22.2760 Y10.9262 
G00 Z2.0000 
G00 X-22.2180 Y11.0495 
G01 Z-0.3000 F100.00 
G01 X-22.1744 Y11.0676 F50.00 
G01 X-22.1974 Y11.0614 
G01 X-22.2180 Y11.0495 
G00 Z2.0000 
G00 X-22.1649 Y11.0702 
G01 Z-0.3000 F100.00 
G01 X-22.1723 Y11.0682 F50.00 
G01 X-21.7990 Y11.0682 
G01 X-22.1649 Y11.0702 
G00 Z2.0000 
G00 X-20.5216 Y11.0676 
G01 Z-0.3000 F100.00 
G01 X-20.4780 Y11.0495 F50.00 
G01 X-20.4986 Y11.0614 
G01 X-20.5216 Y11.0676 
G00 Z2.0000 
G00 X-20.4694 Y11.0446 
G01 Z-0.3000 F100.00 
G01 X-20.4761 Y11.0485 F50.00 
G01 X-20.4417 Y11.0141 
G01 X-20.4694 Y11.0446 
G00 Z2.0000 
G00 X-27.6624 Y30.3048 
G01 Z-0.3000 F100.00 
G01 X-27.7389 Y30.4194 F50.00 
G01 X-27.7232 Y30.3885 
G01 X-27.6624 Y30.3048 
G00 Z2.0000 
G00 X-50.0010 Y34.6040 
G01 Z-0.3000 F100.00 
G01 X-50.2244 Y34.6040 F50.00 
G01 X-50.2264 Y34.6020 
G01 X-50.0010 Y34.6020 
G00 Z2.0000 
G00 X-36.7808 Y39.2440 
G01 Z-0.3000 F100.00 
G01 X-36.9819 Y39.2440 F50.00 
G01 X-36.9698 Y39.1990 
G01 X-36.8258 Y39.1990 
G01 X-36.7808 Y39.2440 
G00 Z2.0000 
G00 X-27.7593 Y30.4593 
G01 Z-0.3000 F100.00 
G01 X-27.7658 Y30.4750 F50.00 
G01 X-27.7672 Y30.4750 
G01 X-27.7593 Y30.4593 
G00 Z2.0000 
G00 X-20.4200 Y10.9590 
G01 Z-0.3000 F100.00 
G01 X-20.4220 Y10.9665 F50.00 
G01 X-20.4220 Y10.7432 
G01 X-20.4200 Y10.9590 
G00 Z2.0000 
G00 X-20.4406 Y11.0122 
G01 Z-0.3000 F100.00 
G01 X-20.4226 Y10.9686 F50.00 
G01 X-20.4287 Y10.9916 
G01 X-20.4406 Y11.0122 
G00 Z2.0000 
G00 X-20.8970 Y11.0702 
G01 Z-0.3000 F100.00 
G01 X-20.8970 Y11.0682 F50.00 
G01 X-20.5237 Y11.0682 
G01 X-20.8970 Y11.0702 
G00 Z2.0000 
G00 X-22.2504 Y11.0208 
G01 Z-0.3000 F100.00 
G01 X-22.2543 Y11.0141 F50.00 
G01 X-22.2199 Y11.0485 
G01 X-22.2504 Y11.0208 
G00 Z2.0000 
G00 X-22.2735 Y10.9686 
G01 Z-0.3000 F100.00 
G01 X-22.2554 Y11.0122 F50.00 
G01 X-22.2673 Y10.9916 
G01 X-22.2735 Y10.9686 
G00 Z2.0000 
G00 X-25.3100 Y19.0174 
G01 Z-0.3000 F100.00 
G01 X-25.2664 Y19.0354 F50.00 
G01 X-25.2894 Y19.0293 
G01 X-25.3100 Y19.0174 
G00 Z2.0000 
G00 X-65.3569 Y16.6214 
G01 Z-0.3000 F100.00 
G01 X-65.2639 Y16.5284 F50.00 
G01 X-65.0886 Y16.5284 
G01 X-65.3569 Y16.7967 
G01 X-65.3569 Y16.6214 
G00 Z2.0000 
G00 X-64.2778 Y17.0395 
G01 Z-0.3000 F100.00 
G01 X-64.4531 Y17.0395 F50.00 
G01 X-64.1848 Y16.7712 
G01 X-64.1848 Y16.9465 
G01 X-64.2778 Y17.0395 
G00 Z2.0000 
G00 X-70.0821 Y10.4161 
G01 Z-0.3000 F100.00 
G01 X-70.6186 Y10.4161 F50.00 
G01 X-70.7933 Y10.2414 
G01 X-70.7933 Y9.5301 
G01 X-69.9073 Y9.5301 
G01 X-69.9073 Y10.2414 
G01 X-70.0821 Y10.4161 
G00 Z2.0000 
G00 X-70.5675 Y6.4741 
G01 Z-0.3000 F100.00 
G01 X-70.4014 Y6.3080 F50.00 
G01 X-70.4014 Y6.6403 
G01 X-70.5675 Y6.4741 
G00 Z2.0000 
G00 X-68.9192 Y2.5321 
G01 Z-0.3000 F100.00 
G01 X-68.9192 Y3.2434 F50.00 
G01 X-69.0939 Y3.4182 
G01 X-70.6186 Y3.4182 
G01 X-70.7933 Y3.2434 
G01 X-70.7933 Y2.5321 
G01 X-68.9192 Y2.5321 
G00 Z2.0000 
G00 X-70.5675 Y26.3017 
G01 Z-0.3000 F100.00 
G01 X-70.4014 Y26.1356 F50.00 
G01 X-70.4014 Y26.4679 
G01 X-70.5675 Y26.3017 
G00 Z2.0000 
G00 X-61.9064 Y24.2295 
G01 Z-0.3000 F100.00 
G01 X-61.9500 Y24.2476 F50.00 
G01 X-61.9294 Y24.2357 
G01 X-61.9064 Y24.2295 
G00 Z2.0000 
G00 X-61.9586 Y24.2526 
G01 Z-0.3000 F100.00 
G01 X-61.9519 Y24.2487 F50.00 
G01 X-61.9863 Y24.2831 
G01 X-61.9586 Y24.2526 
G00 Z2.0000 
G00 X-62.3064 Y26.2595 
G01 Z-0.3000 F100.00 
G01 X-62.3500 Y26.2776 F50.00 
G01 X-62.3294 Y26.2657 
G01 X-62.3064 Y26.2595 
G00 Z2.0000 
G00 X-62.3586 Y26.2826 
G01 Z-0.3000 F100.00 
G01 X-62.3519 Y26.2787 F50.00 
G01 X-62.3863 Y26.3131 
G01 X-62.3586 Y26.2826 
G00 Z2.0000 
G00 X-62.4060 Y26.3607 
G01 Z-0.3000 F100.00 
G01 X-62.4060 Y26.6710 F50.00 
G01 X-62.4080 Y26.6710 
G01 X-62.4080 Y26.3681 
G00 Z2.0000 
G00 X-50.4964 Y36.2368 
G01 Z-0.3000 F100.00 
G01 X-50.4860 Y36.2411 F50.00 
G01 X-50.4860 Y36.5240 
G01 X-50.4880 Y36.3217 
G01 X-50.5104 Y36.2380 
G01 X-50.5313 Y36.2019 
G01 X-50.4964 Y36.2368 
G00 Z2.0000 
G00 X-50.4880 Y37.4760 
G01 Z-0.3000 F100.00 
G01 X-50.4860 Y37.4760 F50.00 
G01 X-50.4860 Y37.9243 
G01 X-50.4880 Y37.4760 
G00 Z2.0000 
G00 X-50.4300 Y38.0074 
G01 Z-0.3000 F100.00 
G01 X-50.3864 Y38.0254 F50.00 
G01 X-50.4094 Y38.0193 
G01 X-50.4300 Y38.0074 
G00 Z2.0000 
G00 X-50.3769 Y38.0280 
G01 Z-0.3000 F100.00 
G01 X-50.3843 Y38.0260 F50.00 
G01 X-50.1360 Y38.0260 
G01 X-50.3769 Y38.0280 
G00 Z2.0000 
G00 X-50.4624 Y37.9786 
G01 Z-0.3000 F100.00 
G01 X-50.4663 Y37.9719 F50.00 
G01 X-50.4319 Y38.0063 
G01 X-50.4624 Y37.9786 
G00 Z2.0000 
G00 X-50.4854 Y37.9264 
G01 Z-0.3000 F100.00 
G01 X-50.4674 Y37.9700 F50.00 
G01 X-50.4793 Y37.9494 
G01 X-50.4854 Y37.9264 
G00 Z2.0000 
G00 X-50.5504 Y36.1564 
G01 Z-0.3000 F100.00 
G01 X-50.5324 Y36.2000 F50.00 
G01 X-50.5443 Y36.1794 
G01 X-50.5504 Y36.1564 
G00 Z2.0000 
G00 X-50.5510 Y36.0646 
G01 Z-0.3000 F100.00 
G01 X-50.5510 Y36.1543 F50.00 
G01 X-50.5530 Y36.1469 
G01 X-50.5530 Y36.0632 
G00 Z2.0000 
G00 X-42.6180 Y38.5760 
G01 Z-0.3000 F100.00 
G01 X-42.6160 Y38.5760 F50.00 
G01 X-42.6160 Y38.7360 
G01 X-42.6180 Y38.5760 
G00 Z2.0000 
G00 X-45.2730 Y16.8907 
G01 Z-0.3000 F100.00 
G01 X-45.4083 Y16.9176 F50.00 
G01 X-45.3754 Y16.9069 
G01 X-45.2730 Y16.8907 
G00 Z2.0000 
G00 X-45.8090 Y16.9961 
G01 Z-0.3000 F100.00 
G01 X-45.9364 Y16.9707 F50.00 
G01 X-45.8400 Y16.9860 
G01 X-45.8090 Y16.9961 
G00 Z2.0000 
G00 X-46.0510 Y16.9686 
G01 Z-0.3000 F100.00 
G01 X-46.0510 Y16.9666 F50.00 
G01 X-45.9626 Y16.9666 
G01 X-45.9499 Y16.9686 
G01 X-46.0510 Y16.9686 
G00 Z2.0000 
G00 X-47.3190 Y16.9666 
G01 Z-0.3000 F100.00 
G01 X-47.3190 Y16.9686 F50.00 
G01 X-47.4201 Y16.9686 
G01 X-47.4074 Y16.9666 
G01 X-47.3190 Y16.9666 
G00 Z2.0000 
G00 X-48.5437 Y14.4330 
G01 Z-0.3000 F100.00 
G01 X-48.5437 Y14.4330 F50.00 
G01 X-48.5903 Y14.4330 
G01 X-48.6304 Y14.4330 
G01 X-48.7141 Y14.4554 
G01 X-48.7628 Y14.4835 
G01 X-48.7892 Y14.4988 
G01 X-48.8194 Y14.5289 
G01 X-48.8505 Y14.5601 
G01 X-48.8610 Y14.5783 
G01 X-48.8610 Y14.4310 
G01 X-48.2357 Y14.4310 
G01 X-48.5437 Y14.4330 
G00 Z2.0000 
G00 X-48.1526 Y14.3750 
G01 Z-0.3000 F100.00 
G01 X-48.1346 Y14.3314 F50.00 
G01 X-48.1407 Y14.3544 
G01 X-48.1526 Y14.3750 
G00 Z2.0000 
G00 X-48.1320 Y14.3219 
G01 Z-0.3000 F100.00 
G01 X-48.1340 Y14.3293 F50.00 
G01 X-48.1340 Y14.1060 
G01 X-48.1320 Y14.3219 
G00 Z2.0000 
G00 X-48.1814 Y14.4074 
G01 Z-0.3000 F100.00 
G01 X-48.1881 Y14.4113 F50.00 
G01 X-48.1537 Y14.3769 
G01 X-48.1814 Y14.4074 
G00 Z2.0000 
G00 X-48.2336 Y14.4304 
G01 Z-0.3000 F100.00 
G01 X-48.1900 Y14.4124 F50.00 
G01 X-48.2106 Y14.4243 
G01 X-48.2336 Y14.4304 
G00 Z2.0000 
G00 X-47.4336 Y16.9707 
G01 Z-0.3000 F100.00 
G01 X-47.5610 Y16.9961 F50.00 
G01 X-47.5300 Y16.9860 
G01 X-47.4336 Y16.9707 
G00 Z2.0000 
G00 X-45.4510 Y16.9315 
G01 Z-0.3000 F100.00 
G01 X-45.5627 Y16.9777 F50.00 
G01 X-45.5205 Y16.9562 
G01 X-45.5086 Y16.9502 
G01 X-45.4510 Y16.9315 
G00 Z2.0000 
G00 X-45.6770 Y17.0478 
G01 Z-0.3000 F100.00 
G01 X-45.7758 Y17.0069 F50.00 
G01 X-45.7690 Y17.0091 
G01 X-45.7384 Y17.0107 
G01 X-45.6825 Y17.0136 
G01 X-45.6640 Y17.0097 
G01 X-45.5994 Y16.9959 
G01 X-45.6770 Y17.0478 
G00 Z2.0000 
G00 X-44.7850 Y16.8850 
G01 Z-0.3000 F100.00 
G01 X-44.7850 Y16.8870 F50.00 
G01 X-45.2497 Y16.8870 
G01 X-45.2370 Y16.8850 
G01 X-44.7850 Y16.8850 
G00 Z2.0000 
G00 X-62.5010 Y30.9460 
G01 Z-0.3000 F100.00 
G01 X-62.5030 Y30.9460 F50.00 
G01 X-62.5030 Y30.8775 
G01 X-62.5010 Y30.8623 
G01 X-62.5010 Y30.9460 
G00 Z2.0000 
G00 X-62.3874 Y26.3150 
G01 Z-0.3000 F100.00 
G01 X-62.4054 Y26.3586 F50.00 
G01 X-62.3993 Y26.3356 
G01 X-62.3874 Y26.3150 
G00 Z2.0000 
G00 X-62.2290 Y26.2570 
G01 Z-0.3000 F100.00 
G01 X-62.2290 Y26.2590 F50.00 
G01 X-62.3043 Y26.2590 
G01 X-62.2290 Y26.2570 
G00 Z2.0000 
G00 X-61.9281 Y25.4715 
G01 Z-0.3000 F100.00 
G01 X-61.9303 Y25.4737 F50.00 
G01 X-61.9500 Y25.4624 
G01 X-61.9281 Y25.4715 
G00 Z2.0000 
G00 X-61.9824 Y25.4336 
G01 Z-0.3000 F100.00 
G01 X-61.9863 Y25.4269 F50.00 
G01 X-61.9519 Y25.4613 
G01 X-61.9824 Y25.4336 
G00 Z2.0000 
G00 X-62.0054 Y25.3814 
G01 Z-0.3000 F100.00 
G01 X-61.9874 Y25.4250 F50.00 
G01 X-61.9993 Y25.4044 
G01 X-62.0054 Y25.3814 
G00 Z2.0000 
G00 X-62.0060 Y25.2310 
G01 Z-0.3000 F100.00 
G01 X-62.0060 Y25.3793 F50.00 
G01 X-62.0080 Y25.3719 
G01 X-62.0080 Y25.2310 
G00 Z2.0000 
G00 X-62.0080 Y24.3381 
G01 Z-0.3000 F100.00 
G01 X-62.0060 Y24.3307 F50.00 
G01 X-62.0060 Y24.4790 
G01 X-62.0080 Y24.3381 
G00 Z2.0000 
G00 X-61.9874 Y24.2850 
G01 Z-0.3000 F100.00 
G01 X-62.0054 Y24.3286 F50.00 
G01 X-61.9993 Y24.3056 
G01 X-61.9874 Y24.2850 
G00 Z2.0000 
G00 X-61.7640 Y24.2270 
G01 Z-0.3000 F100.00 
G01 X-61.7640 Y24.2290 F50.00 
G01 X-61.9043 Y24.2290 
G01 X-61.7640 Y24.2270 
G00 Z2.0000 
G00 X-24.6342 Y30.4750 
G01 Z-0.3000 F100.00 
G01 X-24.6407 Y30.4593 F50.00 
G00 Z2.0000 
G00 X-24.6611 Y30.4194 
G01 Z-0.3000 F100.00 
G01 X-24.7377 Y30.3047 F50.00 
G01 X-24.6768 Y30.3885 
G01 X-24.6611 Y30.4194 
G00 Z2.0000 
G00 X-17.6187 Y2.8950 
G01 Z-0.3000 F100.00 
G01 X-17.6158 Y2.8950 F50.00 
G01 X-17.1200 Y3.3908 
G01 X-17.6187 Y2.8950 
G00 Z2.0000 
G00 X-16.3600 Y3.3908 
G01 Z-0.3000 F100.00 
G01 X-15.8780 Y2.9088 F50.00 
G01 X-15.8751 Y2.9088 
G01 X-16.3600 Y3.3936 
G00 Z2.0000 
G00 X-4.5880 Y2.7762 
G01 Z-0.3000 F100.00 
G01 X-4.5900 Y2.7742 F50.00 
G01 X-4.5900 Y2.6040 
G01 X-4.5880 Y2.7762 
G00 Z2.0000 
G00 X-5.6568 Y3.6708 
G01 Z-0.3000 F100.00 
G01 X-5.4866 Y3.6708 F50.00 
G01 X-5.4846 Y3.6728 
G01 X-5.6568 Y3.6728 
G00 Z2.0000 
G00 X-6.5651 Y3.6728 
G01 Z-0.3000 F100.00 
G01 X-7.3291 Y2.9088 F50.00 
G01 X-7.3263 Y2.9088 
G01 X-6.5643 Y3.6708 
G01 X-6.3152 Y3.6708 
G01 X-6.5651 Y3.6728 
G00 Z2.0000 
G00 X-47.4229 Y31.2414 
G01 Z-0.3000 F100.00 
G01 X-45.9471 Y31.2414 F50.00 
G01 X-45.7952 Y31.2112 
G01 X-45.7788 Y31.2044 
G01 X-45.6776 Y31.2719 
G01 X-45.5160 Y31.3389 
G01 X-45.3445 Y31.3730 
G01 X-43.6455 Y31.3730 
G01 X-43.4740 Y31.3389 
G01 X-43.3124 Y31.2719 
G01 X-43.1669 Y31.1748 
G01 X-43.0432 Y31.0511 
G01 X-42.9461 Y30.9056 
G01 X-42.8791 Y30.7440 
G01 X-42.8450 Y30.5725 
G01 X-42.8450 Y30.3975 
G01 X-42.8791 Y30.2260 
G01 X-42.9461 Y30.0644 
G01 X-43.0432 Y29.9189 
G01 X-43.1669 Y29.7952 
G01 X-43.3124 Y29.6981 
G01 X-43.4740 Y29.6311 
G01 X-43.6455 Y29.5970 
G01 X-45.3445 Y29.5970 
G01 X-45.5160 Y29.6311 
G01 X-45.6776 Y29.6981 
G01 X-45.7233 Y29.7286 
G01 X-45.7952 Y29.6988 
G01 X-45.9471 Y29.6686 
G01 X-47.4229 Y29.6686 
G01 X-47.5748 Y29.6988 
G01 X-47.7179 Y29.7581 
G01 X-47.8467 Y29.8442 
G01 X-47.9562 Y29.9537 
G01 X-48.0423 Y30.0825 
G01 X-48.1016 Y30.2256 
G01 X-48.1318 Y30.3775 
G01 X-48.1318 Y30.5325 
G01 X-48.1016 Y30.6844 
G01 X-48.0423 Y30.8275 
G01 X-47.9562 Y30.9563 
G01 X-47.8467 Y31.0658 
G01 X-47.7179 Y31.1519 
G01 X-47.5748 Y31.2112 
G01 X-47.4229 Y31.2414 
G00 Z2.0000 
G00 X-47.4229 Y33.7814 
G01 Z-0.3000 F100.00 
G01 X-45.9471 Y33.7814 F50.00 
G01 X-45.7952 Y33.7512 
G01 X-45.7788 Y33.7444 
G01 X-45.6776 Y33.8119 
G01 X-45.5160 Y33.8789 
G01 X-45.3445 Y33.9130 
G01 X-43.6455 Y33.9130 
G01 X-43.4740 Y33.8789 
G01 X-43.3124 Y33.8119 
G01 X-43.1669 Y33.7148 
G01 X-43.0432 Y33.5911 
G01 X-42.9461 Y33.4456 
G01 X-42.8791 Y33.2840 
G01 X-42.8450 Y33.1125 
G01 X-42.8450 Y32.9375 
G01 X-42.8791 Y32.7660 
G01 X-42.9461 Y32.6044 
G01 X-43.0432 Y32.4589 
G01 X-43.1669 Y32.3352 
G01 X-43.3124 Y32.2381 
G01 X-43.4740 Y32.1711 
G01 X-43.6455 Y32.1370 
G01 X-45.3445 Y32.1370 
G01 X-45.5160 Y32.1711 
G01 X-45.6776 Y32.2381 
G01 X-45.7233 Y32.2686 
G01 X-45.7952 Y32.2388 
G01 X-45.9471 Y32.2086 
G01 X-47.4229 Y32.2086 
G01 X-47.5748 Y32.2388 
G01 X-47.7179 Y32.2981 
G01 X-47.8467 Y32.3842 
G01 X-47.9562 Y32.4937 
G01 X-48.0423 Y32.6225 
G01 X-48.1016 Y32.7656 
G01 X-48.1318 Y32.9175 
G01 X-48.1318 Y33.0725 
G01 X-48.1016 Y33.2244 
G01 X-48.0423 Y33.3675 
G01 X-47.9562 Y33.4963 
G01 X-47.8467 Y33.6058 
G01 X-47.7179 Y33.6919 
G01 X-47.5748 Y33.7512 
G01 X-47.4229 Y33.7814 
G00 Z2.0000 
G00 X-47.4229 Y36.3214 
G01 Z-0.3000 F100.00 
G01 X-45.9471 Y36.3214 F50.00 
G01 X-45.7952 Y36.2912 
G01 X-45.7788 Y36.2844 
G01 X-45.6776 Y36.3519 
G01 X-45.5160 Y36.4189 
G01 X-45.3445 Y36.4530 
G01 X-43.6455 Y36.4530 
G01 X-43.4740 Y36.4189 
G01 X-43.3124 Y36.3519 
G01 X-43.1669 Y36.2548 
G01 X-43.1062 Y36.1940 
G01 X-42.6160 Y36.1940 
G01 X-42.6160 Y36.8001 
G01 X-42.5968 Y36.8464 
G01 X-42.5614 Y36.8818 
G01 X-42.5151 Y36.9010 
G01 X-40.8649 Y36.9010 
G01 X-40.8186 Y36.8818 
G01 X-40.7832 Y36.8464 
G01 X-40.7640 Y36.8001 
G01 X-40.7640 Y35.4499 
G01 X-40.7832 Y35.4036 
G01 X-40.8186 Y35.3682 
G01 X-40.8649 Y35.3490 
G01 X-41.4374 Y35.3490 
G01 X-41.1859 Y35.0975 
G01 X-41.0975 Y35.0091 
G01 X-41.0282 Y34.9053 
G01 X-40.9804 Y34.7899 
G01 X-40.9560 Y34.6674 
G01 X-40.9560 Y32.4276 
G01 X-40.9640 Y32.3873 
G01 X-40.9640 Y31.7149 
G01 X-40.9832 Y31.6686 
G01 X-41.0186 Y31.6332 
G01 X-41.0649 Y31.6140 
G01 X-42.1151 Y31.6140 
G01 X-42.1614 Y31.6332 
G01 X-42.1968 Y31.6686 
G01 X-42.2160 Y31.7149 
G01 X-42.2160 Y32.3873 
G01 X-42.2240 Y32.4276 
G01 X-42.2240 Y34.3424 
G01 X-42.6317 Y34.7500 
G01 X-42.8076 Y34.9260 
G01 X-43.1162 Y34.9260 
G01 X-43.1669 Y34.8752 
G01 X-43.3124 Y34.7781 
G01 X-43.4740 Y34.7111 
G01 X-43.6455 Y34.6770 
G01 X-45.3445 Y34.6770 
G01 X-45.5160 Y34.7111 
G01 X-45.6776 Y34.7781 
G01 X-45.7233 Y34.8086 
G01 X-45.7952 Y34.7788 
G01 X-45.9471 Y34.7486 
G01 X-47.4229 Y34.7486 
G01 X-47.5748 Y34.7788 
G01 X-47.7179 Y34.8381 
G01 X-47.8467 Y34.9242 
G01 X-47.9562 Y35.0337 
G01 X-48.0423 Y35.1625 
G01 X-48.1016 Y35.3056 
G01 X-48.1318 Y35.4575 
G01 X-48.1318 Y35.6125 
G01 X-48.1016 Y35.7644 
G01 X-48.0423 Y35.9075 
G01 X-47.9562 Y36.0363 
G01 X-47.8467 Y36.1458 
G01 X-47.7179 Y36.2319 
G01 X-47.5748 Y36.2912 
G01 X-47.4229 Y36.3214 
G00 Z2.0000 
G00 X-52.2340 Y37.9251 
G01 Z-0.3000 F100.00 
G01 X-52.2340 Y36.0749 F50.00 
G01 X-52.2532 Y36.0286 
G01 X-52.2886 Y35.9932 
G01 X-52.3349 Y35.9740 
G01 X-52.9694 Y35.9740 
G01 X-52.9830 Y35.9604 
G01 X-52.9477 Y35.9075 
G01 X-52.8884 Y35.7644 
G01 X-52.8582 Y35.6125 
G01 X-52.8582 Y35.4575 
G01 X-52.8884 Y35.3056 
G01 X-52.9477 Y35.1625 
G01 X-53.0338 Y35.0337 
G01 X-53.1433 Y34.9242 
G01 X-53.2721 Y34.8381 
G01 X-53.4152 Y34.7788 
G01 X-53.5671 Y34.7486 
G01 X-55.0429 Y34.7486 
G01 X-55.1948 Y34.7788 
G01 X-55.3379 Y34.8381 
G01 X-55.4320 Y34.9010 
G01 X-55.5940 Y34.9010 
G01 X-55.5940 Y34.7699 
G01 X-55.6132 Y34.7236 
G01 X-55.6486 Y34.6882 
G01 X-55.6949 Y34.6690 
G01 X-56.3673 Y34.6690 
G01 X-56.4076 Y34.6610 
G01 X-56.5324 Y34.6610 
G01 X-56.5727 Y34.6690 
G01 X-57.2451 Y34.6690 
G01 X-57.2914 Y34.6882 
G01 X-57.3268 Y34.7236 
G01 X-57.3460 Y34.7699 
G01 X-57.3460 Y35.8201 
G01 X-57.3268 Y35.8664 
G01 X-57.2914 Y35.9018 
G01 X-57.2451 Y35.9210 
G01 X-56.7406 Y35.9210 
G01 X-56.6342 Y36.0275 
G01 X-56.5303 Y36.0968 
G01 X-56.4149 Y36.1446 
G01 X-56.2924 Y36.1690 
G01 X-55.4320 Y36.1690 
G01 X-55.3379 Y36.2319 
G01 X-55.1948 Y36.2912 
G01 X-55.0429 Y36.3214 
G01 X-54.4152 Y36.3214 
G01 X-53.8860 Y36.8506 
G01 X-53.8860 Y37.9251 
G01 X-53.8668 Y37.9714 
G01 X-53.8314 Y38.0068 
G01 X-53.7851 Y38.0260 
G01 X-52.3349 Y38.0260 
G01 X-52.2886 Y38.0068 
G01 X-52.2532 Y37.9714 
G01 X-52.2340 Y37.9251 
G00 Z2.0000 
G00 X-48.5999 Y32.8560 
G01 Z-0.3000 F100.00 
G01 X-48.5536 Y32.8368 F50.00 
G01 X-48.5182 Y32.8014 
G01 X-48.4990 Y32.7551 
G01 X-48.4990 Y31.3049 
G01 X-48.5182 Y31.2586 
G01 X-48.5536 Y31.2232 
G01 X-48.5999 Y31.2040 
G01 X-50.4501 Y31.2040 
G01 X-50.4964 Y31.2232 
G01 X-50.5318 Y31.2586 
G01 X-50.5510 Y31.3049 
G01 X-50.5510 Y31.7510 
G01 X-53.4024 Y31.7510 
G01 X-53.5249 Y31.7754 
G01 X-53.6403 Y31.8232 
G01 X-53.7442 Y31.8925 
G01 X-53.8325 Y31.9808 
G01 X-54.0602 Y32.2086 
G01 X-55.0429 Y32.2086 
G01 X-55.0800 Y32.2160 
G01 X-56.5324 Y32.2160 
G01 X-56.5727 Y32.2240 
G01 X-57.2451 Y32.2240 
G01 X-57.2914 Y32.2432 
G01 X-57.3268 Y32.2786 
G01 X-57.3460 Y32.3249 
G01 X-57.3460 Y33.3751 
G01 X-57.3268 Y33.4214 
G01 X-57.2914 Y33.4568 
G01 X-57.2451 Y33.4760 
G01 X-56.5727 Y33.4760 
G01 X-56.5324 Y33.4840 
G01 X-55.5845 Y33.4840 
G01 X-55.5762 Y33.4963 
G01 X-55.4667 Y33.6058 
G01 X-55.3379 Y33.6919 
G01 X-55.1948 Y33.7512 
G01 X-55.0429 Y33.7814 
G01 X-53.5671 Y33.7814 
G01 X-53.4152 Y33.7512 
G01 X-53.2721 Y33.6919 
G01 X-53.1433 Y33.6058 
G01 X-53.0338 Y33.4963 
G01 X-52.9477 Y33.3675 
G01 X-52.8884 Y33.2244 
G01 X-52.8582 Y33.0725 
G01 X-52.8582 Y33.0190 
G01 X-49.8176 Y33.0190 
G01 X-49.6951 Y32.9946 
G01 X-49.5797 Y32.9468 
G01 X-49.4758 Y32.8775 
G01 X-49.4544 Y32.8560 
G01 X-48.5999 Y32.8560 
G00 Z2.0000 
G00 X-52.8151 Y31.5860 
G01 Z-0.3000 F100.00 
G01 X-50.9649 Y31.5860 F50.00 
G01 X-50.9186 Y31.5668 
G01 X-50.8832 Y31.5314 
G01 X-50.8640 Y31.4851 
G01 X-50.8640 Y30.0349 
G01 X-50.8832 Y29.9886 
G01 X-50.9186 Y29.9532 
G01 X-50.9649 Y29.9340 
G01 X-51.8336 Y29.9340 
G01 X-51.8947 Y29.8932 
G01 X-52.0101 Y29.8454 
G01 X-52.1326 Y29.8210 
G01 X-53.1780 Y29.8210 
G01 X-53.2721 Y29.7581 
G01 X-53.4152 Y29.6988 
G01 X-53.5671 Y29.6686 
G01 X-54.4048 Y29.6686 
G01 X-54.9590 Y29.1144 
G01 X-54.9590 Y28.6099 
G01 X-54.9782 Y28.5636 
G01 X-55.0136 Y28.5282 
G01 X-55.0599 Y28.5090 
G01 X-55.7323 Y28.5090 
G01 X-55.7726 Y28.5010 
G01 X-55.8974 Y28.5010 
G01 X-55.9377 Y28.5090 
G01 X-56.6101 Y28.5090 
G01 X-56.6564 Y28.5282 
G01 X-56.6918 Y28.5636 
G01 X-56.7110 Y28.6099 
G01 X-56.7110 Y29.6601 
G01 X-56.6918 Y29.7064 
G01 X-56.6564 Y29.7418 
G01 X-56.6101 Y29.7610 
G01 X-56.1056 Y29.7610 
G01 X-55.6980 Y30.1686 
G01 X-55.7216 Y30.2256 
G01 X-55.7518 Y30.3775 
G01 X-55.7518 Y30.5325 
G01 X-55.7216 Y30.6844 
G01 X-55.6623 Y30.8275 
G01 X-55.5762 Y30.9563 
G01 X-55.4667 Y31.0658 
G01 X-55.3379 Y31.1519 
G01 X-55.1948 Y31.2112 
G01 X-55.0429 Y31.2414 
G01 X-53.5671 Y31.2414 
G01 X-53.4152 Y31.2112 
G01 X-53.2721 Y31.1519 
G01 X-53.1780 Y31.0890 
G01 X-52.9160 Y31.0890 
G01 X-52.9160 Y31.4851 
G01 X-52.8968 Y31.5314 
G01 X-52.8614 Y31.5668 
G01 X-52.8151 Y31.5860 
G00 Z2.0000 
G00 X-57.5749 Y35.9210 
G01 Z-0.3000 F100.00 
G01 X-57.5286 Y35.9018 F50.00 
G01 X-57.4932 Y35.8664 
G01 X-57.4740 Y35.8201 
G01 X-57.4740 Y34.7699 
G01 X-57.4932 Y34.7236 
G01 X-57.5286 Y34.6882 
G01 X-57.5749 Y34.6690 
G01 X-58.2473 Y34.6690 
G01 X-58.2876 Y34.6610 
G01 X-59.4062 Y34.6610 
G01 X-60.0854 Y33.9818 
G01 X-60.4566 Y33.9818 
G01 X-61.2490 Y33.1894 
G01 X-61.2490 Y32.6849 
G01 X-61.2682 Y32.6386 
G01 X-61.3036 Y32.6032 
G01 X-61.3499 Y32.5840 
G01 X-62.4001 Y32.5840 
G01 X-62.4464 Y32.6032 
G01 X-62.4818 Y32.6386 
G01 X-62.5010 Y32.6849 
G01 X-62.5010 Y33.3573 
G01 X-62.5090 Y33.3976 
G01 X-62.5090 Y33.5224 
G01 X-62.5010 Y33.5627 
G01 X-62.5010 Y34.2351 
G01 X-62.4818 Y34.2814 
G01 X-62.4464 Y34.3168 
G01 X-62.4001 Y34.3360 
G01 X-61.8956 Y34.3360 
G01 X-61.6722 Y34.5594 
G01 X-61.8082 Y34.6954 
G01 X-61.8082 Y35.7046 
G01 X-61.0946 Y36.4182 
G01 X-60.0854 Y36.4182 
G01 X-59.5962 Y35.9290 
G01 X-58.2876 Y35.9290 
G01 X-58.2473 Y35.9210 
G01 X-57.5749 Y35.9210 
G00 Z2.0000 
G00 X-58.5910 Y29.6601 
G01 Z-0.3000 F100.00 
G01 X-58.5718 Y29.7064 F50.00 
G01 X-58.5364 Y29.7418 
G01 X-58.4901 Y29.7610 
G01 X-57.8177 Y29.7610 
G01 X-57.7774 Y29.7690 
G01 X-57.6526 Y29.7690 
G01 X-57.6123 Y29.7610 
G01 X-56.9399 Y29.7610 
G01 X-56.8936 Y29.7418 
G01 X-56.8582 Y29.7064 
G01 X-56.8390 Y29.6601 
G01 X-56.8390 Y28.6099 
G01 X-56.8582 Y28.5636 
G01 X-56.8936 Y28.5282 
G01 X-56.9399 Y28.5090 
G01 X-57.1514 Y28.5090 
G01 X-57.2225 Y28.4008 
G01 X-57.9118 Y27.7116 
G01 X-57.9118 Y26.8854 
G01 X-58.4960 Y26.3012 
G01 X-58.4960 Y25.4810 
G01 X-58.4749 Y25.4810 
G01 X-58.4286 Y25.4618 
G01 X-58.3932 Y25.4264 
G01 X-58.3740 Y25.3801 
G01 X-58.3740 Y24.3299 
G01 X-58.3932 Y24.2836 
G01 X-58.4286 Y24.2482 
G01 X-58.4749 Y24.2290 
G01 X-59.1473 Y24.2290 
G01 X-59.1876 Y24.2210 
G01 X-59.3124 Y24.2210 
G01 X-59.3527 Y24.2290 
G01 X-60.0251 Y24.2290 
G01 X-60.0714 Y24.2482 
G01 X-60.1068 Y24.2836 
G01 X-60.1260 Y24.3299 
G01 X-60.1260 Y25.3801 
G01 X-60.1068 Y25.4264 
G01 X-60.0714 Y25.4618 
G01 X-60.0251 Y25.4810 
G01 X-59.7640 Y25.4810 
G01 X-59.7640 Y26.3012 
G01 X-60.3482 Y26.8854 
G01 X-60.3482 Y27.8946 
G01 X-59.6346 Y28.6082 
G01 X-58.8084 Y28.6082 
G01 X-58.5910 Y28.8256 
G01 X-58.5910 Y29.6601 
G00 Z2.0000 
G00 X-61.2549 Y28.1390 
G01 Z-0.3000 F100.00 
G01 X-62.3051 Y28.1390 F50.00 
G01 X-62.3514 Y28.1582 
G01 X-62.3868 Y28.1936 
G01 X-62.4060 Y28.2399 
G01 X-62.4060 Y28.9123 
G01 X-62.4140 Y28.9526 
G01 X-62.4140 Y29.0774 
G01 X-62.4060 Y29.1177 
G01 X-62.4060 Y29.7901 
G01 X-62.3868 Y29.8364 
G01 X-62.3514 Y29.8718 
G01 X-62.3051 Y29.8910 
G01 X-61.2549 Y29.8910 
G01 X-61.2086 Y29.8718 
G01 X-60.5897 Y30.4769 
G01 X-60.8082 Y30.6954 
G01 X-60.8082 Y31.7046 
G01 X-60.0946 Y32.4182 
G01 X-59.6784 Y32.4182 
G01 X-59.2260 Y32.8706 
G01 X-59.2260 Y33.3751 
G01 X-59.2068 Y33.4214 
G01 X-59.1714 Y33.4568 
G01 X-59.1251 Y33.4760 
G01 X-58.4527 Y33.4760 
G01 X-58.4124 Y33.4840 
G01 X-58.2876 Y33.4840 
G01 X-58.2473 Y33.4760 
G01 X-57.5749 Y33.4760 
G01 X-57.5286 Y33.4568 
G01 X-57.4932 Y33.4214 
G01 X-57.4740 Y33.3751 
G01 X-57.4740 Y32.3249 
G01 X-57.4932 Y32.2786 
G01 X-57.5286 Y32.2432 
G01 X-57.5749 Y32.2240 
G01 X-58.0794 Y32.2240 
G01 X-58.4853 Y31.8181 
G01 X-58.3718 Y31.7046 
G01 X-58.3718 Y30.6954 
G01 X-59.0854 Y29.9818 
G01 X-59.2916 Y29.9818 
G01 X-60.4675 Y28.8058 
G01 X-60.5558 Y28.7175 
G01 X-60.6597 Y28.6482 
G01 X-60.7751 Y28.6004 
G01 X-60.8976 Y28.5760 
G01 X-61.1540 Y28.5760 
G01 X-61.1540 Y28.2399 
G01 X-61.1732 Y28.1936 
G01 X-61.2086 Y28.1582 
G01 X-61.2549 Y28.1390 
G00 Z2.0000 
G00 X-43.2349 Y4.5840 
G01 Z-0.3000 F100.00 
G01 X-44.2851 Y4.5840 F50.00 
G01 X-44.3314 Y4.6032 
G01 X-44.3668 Y4.6386 
G01 X-44.3860 Y4.6849 
G01 X-44.3860 Y4.8260 
G01 X-45.2683 Y4.8260 
G01 X-45.3277 Y4.6825 
G01 X-45.4138 Y4.5537 
G01 X-45.5233 Y4.4442 
G01 X-45.6521 Y4.3581 
G01 X-45.7952 Y4.2988 
G01 X-45.9471 Y4.2686 
G01 X-47.4229 Y4.2686 
G01 X-47.5748 Y4.2988 
G01 X-47.7179 Y4.3581 
G01 X-47.8467 Y4.4442 
G01 X-47.9562 Y4.5537 
G01 X-48.0423 Y4.6825 
G01 X-48.1016 Y4.8256 
G01 X-48.1318 Y4.9775 
G01 X-48.1318 Y5.1325 
G01 X-48.1016 Y5.2844 
G01 X-48.0423 Y5.4275 
G01 X-47.9562 Y5.5563 
G01 X-47.8467 Y5.6658 
G01 X-47.7179 Y5.7519 
G01 X-47.5748 Y5.8112 
G01 X-47.4229 Y5.8414 
G01 X-46.7952 Y5.8414 
G01 X-46.6842 Y5.9525 
G01 X-46.5803 Y6.0218 
G01 X-46.4649 Y6.0696 
G01 X-46.3424 Y6.0940 
G01 X-44.3860 Y6.0940 
G01 X-44.3860 Y6.2351 
G01 X-44.3668 Y6.2814 
G01 X-44.3314 Y6.3168 
G01 X-44.2851 Y6.3360 
G01 X-43.2349 Y6.3360 
G01 X-43.1886 Y6.3168 
G01 X-43.1532 Y6.2814 
G01 X-43.1340 Y6.2351 
G01 X-43.1340 Y5.5627 
G01 X-43.1260 Y5.5224 
G01 X-43.1260 Y5.3976 
G01 X-43.1340 Y5.3573 
G01 X-43.1340 Y4.6849 
G01 X-43.1532 Y4.6386 
G01 X-43.1886 Y4.6032 
G01 X-43.2349 Y4.5840 
G00 Z2.0000 
G00 X-43.2349 Y6.4640 
G01 Z-0.3000 F100.00 
G01 X-44.2851 Y6.4640 F50.00 
G01 X-44.3314 Y6.4832 
G01 X-44.3668 Y6.5186 
G01 X-44.3860 Y6.5649 
G01 X-44.3860 Y7.2373 
G01 X-44.3940 Y7.2776 
G01 X-44.3940 Y10.2774 
G01 X-44.3696 Y10.3999 
G01 X-44.3218 Y10.5153 
G01 X-44.2525 Y10.6192 
G01 X-37.4640 Y17.4076 
G01 X-37.4640 Y18.5042 
G01 X-37.9205 Y18.9607 
G01 X-37.9205 Y19.9593 
G01 X-37.2143 Y20.6655 
G01 X-36.2157 Y20.6655 
G01 X-35.6142 Y20.0640 
G01 X-34.6603 Y20.0640 
G01 X-34.6469 Y20.0840 
G01 X-34.5040 Y20.2269 
G01 X-34.3360 Y20.3392 
G01 X-34.1493 Y20.4166 
G01 X-33.9511 Y20.4560 
G01 X-31.9489 Y20.4560 
G01 X-31.7507 Y20.4166 
G01 X-31.5640 Y20.3392 
G01 X-31.3960 Y20.2269 
G01 X-31.2531 Y20.0840 
G01 X-31.1408 Y19.9160 
G01 X-31.0634 Y19.7293 
G01 X-31.0240 Y19.5311 
G01 X-31.0240 Y19.3289 
G01 X-31.0634 Y19.1307 
G01 X-31.1408 Y18.9440 
G01 X-31.2531 Y18.7760 
G01 X-31.3960 Y18.6331 
G01 X-31.5640 Y18.5208 
G01 X-31.7507 Y18.4434 
G01 X-31.9489 Y18.4040 
G01 X-33.9511 Y18.4040 
G01 X-34.1493 Y18.4434 
G01 X-34.3360 Y18.5208 
G01 X-34.5040 Y18.6331 
G01 X-34.6469 Y18.7760 
G01 X-34.6603 Y18.7960 
G01 X-35.6742 Y18.7960 
G01 X-36.1960 Y18.2742 
G01 X-36.1960 Y17.0826 
G01 X-36.2204 Y16.9601 
G01 X-36.2682 Y16.8447 
G01 X-36.3375 Y16.7408 
G01 X-36.4258 Y16.6525 
G01 X-43.1260 Y9.9524 
G01 X-43.1260 Y7.2776 
G01 X-43.1340 Y7.2373 
G01 X-43.1340 Y6.5649 
G01 X-43.1532 Y6.5186 
G01 X-43.1886 Y6.4832 
G01 X-43.2349 Y6.4640 
G00 Z2.0000 
G00 X-45.5810 Y3.5501 
G01 Z-0.3000 F100.00 
G01 X-45.5618 Y3.5964 F50.00 
G01 X-45.5264 Y3.6318 
G01 X-45.4801 Y3.6510 
G01 X-44.8077 Y3.6510 
G01 X-44.7674 Y3.6590 
G01 X-44.6426 Y3.6590 
G01 X-44.6023 Y3.6510 
G01 X-43.9299 Y3.6510 
G01 X-43.8836 Y3.6318 
G01 X-43.8482 Y3.5964 
G01 X-43.8290 Y3.5501 
G01 X-43.8290 Y2.4999 
G01 X-43.8482 Y2.4536 
G01 X-43.8836 Y2.4182 
G01 X-43.9299 Y2.3990 
G01 X-44.4344 Y2.3990 
G01 X-44.8108 Y2.0225 
G01 X-44.9147 Y1.9532 
G01 X-45.0301 Y1.9054 
G01 X-45.1526 Y1.8810 
G01 X-45.5580 Y1.8810 
G01 X-45.6521 Y1.8181 
G01 X-45.7952 Y1.7588 
G01 X-45.9471 Y1.7286 
G01 X-47.4229 Y1.7286 
G01 X-47.5748 Y1.7588 
G01 X-47.7179 Y1.8181 
G01 X-47.8467 Y1.9042 
G01 X-47.9562 Y2.0137 
G01 X-48.0423 Y2.1425 
G01 X-48.1016 Y2.2856 
G01 X-48.1318 Y2.4375 
G01 X-48.1318 Y2.5925 
G01 X-48.1016 Y2.7444 
G01 X-48.0423 Y2.8875 
G01 X-47.9562 Y3.0163 
G01 X-47.8467 Y3.1258 
G01 X-47.7179 Y3.2119 
G01 X-47.5748 Y3.2712 
G01 X-47.4229 Y3.3014 
G01 X-45.9471 Y3.3014 
G01 X-45.7952 Y3.2712 
G01 X-45.6521 Y3.2119 
G01 X-45.5810 Y3.1644 
G01 X-45.5810 Y3.5501 
G00 Z2.0000 
G00 X-48.9699 Y16.7240 
G01 Z-0.3000 F100.00 
G01 X-50.0201 Y16.7240 F50.00 
G01 X-50.0664 Y16.7432 
G01 X-50.1018 Y16.7786 
G01 X-50.1210 Y16.8249 
G01 X-50.1210 Y17.1460 
G01 X-50.8610 Y17.1460 
G01 X-50.8610 Y16.9026 
G01 X-50.8690 Y16.8623 
G01 X-50.8690 Y16.1899 
G01 X-50.8882 Y16.1436 
G01 X-50.9236 Y16.1082 
G01 X-50.9699 Y16.0890 
G01 X-52.0201 Y16.0890 
G01 X-52.0664 Y16.1082 
G01 X-52.1018 Y16.1436 
G01 X-52.1210 Y16.1899 
G01 X-52.1210 Y16.8623 
G01 X-52.1290 Y16.9026 
G01 X-52.1290 Y17.1460 
G01 X-53.1415 Y17.1460 
G01 X-53.2721 Y17.0581 
G01 X-53.4152 Y16.9988 
G01 X-53.5671 Y16.9686 
G01 X-55.0429 Y16.9686 
G01 X-55.1948 Y16.9988 
G01 X-55.3379 Y17.0581 
G01 X-55.4273 Y17.1179 
G01 X-56.0907 Y16.4545 
G01 X-57.0893 Y16.4545 
G01 X-57.7955 Y17.1607 
G01 X-57.7955 Y18.1593 
G01 X-57.0893 Y18.8655 
G01 X-56.0907 Y18.8655 
G01 X-55.6142 Y18.3890 
G01 X-55.4320 Y18.3890 
G01 X-55.3379 Y18.4519 
G01 X-55.1948 Y18.5112 
G01 X-55.0429 Y18.5414 
G01 X-53.5671 Y18.5414 
G01 X-53.4152 Y18.5112 
G01 X-53.2721 Y18.4519 
G01 X-53.2154 Y18.4140 
G01 X-52.4210 Y18.4140 
G01 X-52.4210 Y19.0651 
G01 X-52.4018 Y19.1114 
G01 X-52.3664 Y19.1468 
G01 X-52.3201 Y19.1660 
G01 X-50.6699 Y19.1660 
G01 X-50.6236 Y19.1468 
G01 X-50.5882 Y19.1114 
G01 X-50.5690 Y19.0651 
G01 X-50.5690 Y18.4140 
G01 X-50.1049 Y18.4140 
G01 X-50.0664 Y18.4568 
G01 X-50.0201 Y18.4760 
G01 X-48.9699 Y18.4760 
G01 X-48.9236 Y18.4568 
G01 X-48.8882 Y18.4214 
G01 X-48.8690 Y18.3751 
G01 X-48.8690 Y17.8827 
G01 X-48.8610 Y17.8424 
G01 X-48.8610 Y17.5376 
G01 X-48.8690 Y17.4973 
G01 X-48.8690 Y16.8249 
G01 X-48.8882 Y16.7786 
G01 X-48.9236 Y16.7432 
G01 X-48.9699 Y16.7240 
G00 Z2.0000 
G00 X-37.0393 Y13.7055 
G01 Z-0.3000 F100.00 
G01 X-36.0407 Y13.7055 F50.00 
G01 X-35.5992 Y13.2640 
G01 X-34.6603 Y13.2640 
G01 X-34.6469 Y13.2840 
G01 X-34.5040 Y13.4269 
G01 X-34.3360 Y13.5392 
G01 X-34.1493 Y13.6166 
G01 X-33.9511 Y13.6560 
G01 X-31.9489 Y13.6560 
G01 X-31.7507 Y13.6166 
G01 X-31.5640 Y13.5392 
G01 X-31.3960 Y13.4269 
G01 X-31.2531 Y13.2840 
G01 X-31.1408 Y13.1160 
G01 X-31.0634 Y12.9293 
G01 X-31.0240 Y12.7311 
G01 X-31.0240 Y12.5289 
G01 X-31.0634 Y12.3307 
G01 X-31.1408 Y12.1440 
G01 X-31.2531 Y11.9760 
G01 X-31.3960 Y11.8331 
G01 X-31.5640 Y11.7208 
G01 X-31.7507 Y11.6434 
G01 X-31.9489 Y11.6040 
G01 X-33.9511 Y11.6040 
G01 X-34.1493 Y11.6434 
G01 X-34.3360 Y11.7208 
G01 X-34.5040 Y11.8331 
G01 X-34.6469 Y11.9760 
G01 X-34.6603 Y11.9960 
G01 X-35.3392 Y11.9960 
G01 X-36.0407 Y11.2945 
G01 X-37.0393 Y11.2945 
G01 X-37.5066 Y11.7618 
G01 X-41.5560 Y7.7124 
G01 X-41.5560 Y3.5976 
G01 X-41.5804 Y3.4751 
G01 X-41.6282 Y3.3597 
G01 X-41.6975 Y3.2558 
G01 X-41.9490 Y3.0044 
G01 X-41.9490 Y2.4999 
G01 X-41.9682 Y2.4536 
G01 X-42.0036 Y2.4182 
G01 X-42.0499 Y2.3990 
G01 X-42.7223 Y2.3990 
G01 X-42.7626 Y2.3910 
G01 X-42.8874 Y2.3910 
G01 X-42.9277 Y2.3990 
G01 X-43.6001 Y2.3990 
G01 X-43.6464 Y2.4182 
G01 X-43.6818 Y2.4536 
G01 X-43.7010 Y2.4999 
G01 X-43.7010 Y3.5501 
G01 X-43.6818 Y3.5964 
G01 X-43.6464 Y3.6318 
G01 X-43.6001 Y3.6510 
G01 X-43.0956 Y3.6510 
G01 X-42.8240 Y3.9226 
G01 X-42.8240 Y8.0374 
G01 X-42.7996 Y8.1599 
G01 X-42.7518 Y8.2753 
G01 X-42.6825 Y8.3792 
G01 X-42.5941 Y8.4675 
G01 X-37.9575 Y13.1042 
G01 X-37.8692 Y13.1925 
G01 X-37.7653 Y13.2618 
G01 X-37.6499 Y13.3096 
G01 X-37.5274 Y13.3340 
G01 X-37.4108 Y13.3340 
G01 X-37.0393 Y13.7055 
G00 Z2.0000 
G00 X-23.6751 Y28.9957 
G01 Z-0.3000 F100.00 
G01 X-22.0249 Y28.9957 F50.00 
G01 X-21.9786 Y28.9765 
G01 X-21.9432 Y28.9411 
G01 X-21.9240 Y28.8948 
G01 X-21.9240 Y28.5740 
G01 X-21.2176 Y28.5740 
G01 X-20.0892 Y29.7025 
G01 X-19.9853 Y29.7718 
G01 X-19.8699 Y29.8196 
G01 X-19.7474 Y29.8440 
G01 X-13.2726 Y29.8440 
G01 X-13.1501 Y29.8196 
G01 X-13.0347 Y29.7718 
G01 X-12.9308 Y29.7025 
G01 X-12.8425 Y29.6142 
G01 X-8.6913 Y25.4629 
G01 X-8.6544 Y25.4998 
G01 X-8.4767 Y25.6290 
G01 X-8.2809 Y25.7287 
G01 X-8.0719 Y25.7966 
G01 X-7.8549 Y25.8310 
G01 X-7.6351 Y25.8310 
G01 X-7.4181 Y25.7966 
G01 X-7.2091 Y25.7287 
G01 X-7.0133 Y25.6290 
G01 X-6.8356 Y25.4998 
G01 X-6.6802 Y25.3444 
G01 X-6.5510 Y25.1667 
G01 X-6.4513 Y24.9709 
G01 X-6.3834 Y24.7619 
G01 X-6.3490 Y24.5449 
G01 X-6.3490 Y24.3251 
G01 X-6.3834 Y24.1081 
G01 X-6.4172 Y24.0039 
G01 X-4.0475 Y21.6342 
G01 X-3.9782 Y21.5303 
G01 X-3.9304 Y21.4149 
G01 X-3.9060 Y21.2924 
G01 X-3.9060 Y18.5338 
G01 X-3.3218 Y17.9496 
G01 X-3.3218 Y16.9404 
G01 X-3.8110 Y16.4512 
G01 X-3.8110 Y12.6376 
G01 X-3.8354 Y12.5151 
G01 X-3.8832 Y12.3997 
G01 X-3.9525 Y12.2958 
G01 X-4.0408 Y12.2075 
G01 X-7.2158 Y9.0325 
G01 X-7.3197 Y8.9632 
G01 X-7.4351 Y8.9154 
G01 X-7.5576 Y8.8910 
G01 X-16.8824 Y8.8910 
G01 X-20.7800 Y4.9934 
G01 X-20.8683 Y4.9050 
G01 X-22.1358 Y3.6375 
G01 X-22.2397 Y3.5682 
G01 X-22.3551 Y3.5204 
G01 X-22.4776 Y3.4960 
G01 X-26.1597 Y3.4960 
G01 X-26.1731 Y3.4760 
G01 X-26.3160 Y3.3331 
G01 X-26.4840 Y3.2208 
G01 X-26.6707 Y3.1434 
G01 X-26.8689 Y3.1040 
G01 X-28.8711 Y3.1040 
G01 X-29.0693 Y3.1434 
G01 X-29.2560 Y3.2208 
G01 X-29.4240 Y3.3331 
G01 X-29.5669 Y3.4760 
G01 X-29.6792 Y3.6440 
G01 X-29.7566 Y3.8307 
G01 X-29.7960 Y4.0289 
G01 X-29.7960 Y4.2311 
G01 X-29.7566 Y4.4293 
G01 X-29.6792 Y4.6160 
G01 X-29.5669 Y4.7840 
G01 X-29.4240 Y4.9269 
G01 X-29.2560 Y5.0392 
G01 X-29.0693 Y5.1166 
G01 X-28.8711 Y5.1560 
G01 X-26.8689 Y5.1560 
G01 X-26.6707 Y5.1166 
G01 X-26.4840 Y5.0392 
G01 X-26.3160 Y4.9269 
G01 X-26.1731 Y4.7840 
G01 X-26.1597 Y4.7640 
G01 X-22.8026 Y4.7640 
G01 X-21.9820 Y5.5846 
G01 X-21.9820 Y7.5162 
G01 X-22.1731 Y7.5162 
G01 X-22.2194 Y7.5353 
G01 X-22.2548 Y7.5708 
G01 X-22.2740 Y7.6171 
G01 X-22.2740 Y8.9672 
G01 X-22.2548 Y9.0135 
G01 X-22.2194 Y9.0490 
G01 X-22.1731 Y9.0682 
G01 X-20.5230 Y9.0682 
G01 X-20.4766 Y9.0490 
G01 X-20.4412 Y9.0135 
G01 X-20.4220 Y8.9672 
G01 X-20.4220 Y7.6171 
G01 X-20.4412 Y7.5708 
G01 X-20.4766 Y7.5353 
G01 X-20.5230 Y7.5162 
G01 X-20.7140 Y7.5162 
G01 X-20.7140 Y6.8526 
G01 X-17.6375 Y9.9291 
G01 X-17.5492 Y10.0175 
G01 X-17.4453 Y10.0868 
G01 X-17.3299 Y10.1346 
G01 X-17.2074 Y10.1590 
G01 X-7.8826 Y10.1590 
G01 X-5.0790 Y12.9626 
G01 X-5.0790 Y16.2612 
G01 X-5.7582 Y16.9404 
G01 X-5.7582 Y17.9496 
G01 X-5.1740 Y18.5338 
G01 X-5.1740 Y20.9674 
G01 X-7.3139 Y23.1072 
G01 X-7.4181 Y23.0734 
G01 X-7.6351 Y23.0390 
G01 X-7.8549 Y23.0390 
G01 X-8.0719 Y23.0734 
G01 X-8.2809 Y23.1413 
G01 X-8.4767 Y23.2410 
G01 X-8.6544 Y23.3702 
G01 X-8.8098 Y23.5256 
G01 X-8.9390 Y23.7033 
G01 X-9.0387 Y23.8991 
G01 X-9.0955 Y24.0739 
G01 X-13.5976 Y28.5760 
G01 X-19.4224 Y28.5760 
G01 X-20.4625 Y27.5358 
G01 X-20.5508 Y27.4475 
G01 X-20.6547 Y27.3782 
G01 X-20.7701 Y27.3304 
G01 X-20.8926 Y27.3060 
G01 X-22.6327 Y27.3060 
G01 X-22.7552 Y27.3304 
G01 X-22.8706 Y27.3782 
G01 X-22.9687 Y27.4437 
G01 X-23.6751 Y27.4437 
G01 X-23.7214 Y27.4629 
G01 X-23.7568 Y27.4983 
G01 X-23.7760 Y27.5446 
G01 X-23.7760 Y27.5857 
G01 X-24.9311 Y27.5857 
G01 X-25.0174 Y27.5281 
G01 X-25.1790 Y27.4611 
G01 X-25.3505 Y27.4270 
G01 X-27.0495 Y27.4270 
G01 X-27.2210 Y27.4611 
G01 X-27.3826 Y27.5281 
G01 X-27.5281 Y27.6252 
G01 X-27.5838 Y27.6810 
G01 X-29.3442 Y27.6810 
G01 X-30.0407 Y26.9845 
G01 X-31.0393 Y26.9845 
G01 X-31.7455 Y27.6907 
G01 X-31.7455 Y28.6893 
G01 X-31.0393 Y29.3955 
G01 X-30.0407 Y29.3955 
G01 X-29.5942 Y28.9490 
G01 X-27.5838 Y28.9490 
G01 X-27.5281 Y29.0048 
G01 X-27.3826 Y29.1019 
G01 X-27.2210 Y29.1689 
G01 X-27.0495 Y29.2030 
G01 X-25.3505 Y29.2030 
G01 X-25.1790 Y29.1689 
G01 X-25.0174 Y29.1019 
G01 X-24.8719 Y29.0048 
G01 X-24.7482 Y28.8811 
G01 X-24.7300 Y28.8537 
G01 X-23.7760 Y28.8537 
G01 X-23.7760 Y28.8948 
G01 X-23.7568 Y28.9411 
G01 X-23.7214 Y28.9765 
G01 X-23.6751 Y28.9957 
G00 Z2.0000 
G00 X-25.1201 Y8.9210 
G01 Z-0.3000 F100.00 
G01 X-23.4699 Y8.9210 F50.00 
G01 X-23.4236 Y8.9018 
G01 X-23.3882 Y8.8664 
G01 X-23.3690 Y8.8201 
G01 X-23.3690 Y7.4699 
G01 X-23.3882 Y7.4236 
G01 X-23.4236 Y7.3882 
G01 X-23.4699 Y7.3690 
G01 X-25.1201 Y7.3690 
G01 X-25.1664 Y7.3882 
G01 X-25.2018 Y7.4236 
G01 X-25.2210 Y7.4699 
G01 X-25.2210 Y7.5110 
G01 X-25.9440 Y7.5110 
G01 X-25.9440 Y7.4289 
G01 X-25.9834 Y7.2307 
G01 X-26.0608 Y7.0440 
G01 X-26.1731 Y6.8760 
G01 X-26.3160 Y6.7331 
G01 X-26.4840 Y6.6208 
G01 X-26.6707 Y6.5434 
G01 X-26.8689 Y6.5040 
G01 X-28.8711 Y6.5040 
G01 X-29.0693 Y6.5434 
G01 X-29.2560 Y6.6208 
G01 X-29.4240 Y6.7331 
G01 X-29.5669 Y6.8760 
G01 X-29.6792 Y7.0440 
G01 X-29.7566 Y7.2307 
G01 X-29.7960 Y7.4289 
G01 X-29.7960 Y7.6311 
G01 X-29.7566 Y7.8293 
G01 X-29.6792 Y8.0160 
G01 X-29.5669 Y8.1840 
G01 X-29.4240 Y8.3269 
G01 X-29.2560 Y8.4392 
G01 X-29.0693 Y8.5166 
G01 X-28.8711 Y8.5560 
G01 X-27.7406 Y8.5560 
G01 X-27.6592 Y8.6375 
G01 X-27.5553 Y8.7068 
G01 X-27.4399 Y8.7546 
G01 X-27.3174 Y8.7790 
G01 X-25.2210 Y8.7790 
G01 X-25.2210 Y8.8201 
G01 X-25.2018 Y8.8664 
G01 X-25.1664 Y8.9018 
G01 X-25.1201 Y8.9210 
G00 Z2.0000 
G00 X-25.1201 Y6.9210 
G01 Z-0.3000 F100.00 
G01 X-23.4699 Y6.9210 F50.00 
G01 X-23.4236 Y6.9018 
G01 X-23.3882 Y6.8664 
G01 X-23.3690 Y6.8201 
G01 X-23.3690 Y5.4699 
G01 X-23.3882 Y5.4236 
G01 X-23.4236 Y5.3882 
G01 X-23.4699 Y5.3690 
G01 X-24.1744 Y5.3690 
G01 X-24.2058 Y5.3375 
G01 X-24.3097 Y5.2682 
G01 X-24.4251 Y5.2204 
G01 X-24.5476 Y5.1960 
G01 X-31.2397 Y5.1960 
G01 X-31.2531 Y5.1760 
G01 X-31.3960 Y5.0331 
G01 X-31.5640 Y4.9208 
G01 X-31.7507 Y4.8434 
G01 X-31.9489 Y4.8040 
G01 X-33.9511 Y4.8040 
G01 X-34.1493 Y4.8434 
G01 X-34.3360 Y4.9208 
G01 X-34.5040 Y5.0331 
G01 X-34.6469 Y5.1760 
G01 X-34.6603 Y5.1960 
G01 X-34.9515 Y5.1960 
G01 X-34.9515 Y4.4524 
G01 X-34.9707 Y4.4061 
G01 X-35.0061 Y4.3707 
G01 X-35.0524 Y4.3515 
G01 X-36.7026 Y4.3515 
G01 X-36.7489 Y4.3707 
G01 X-36.7843 Y4.4061 
G01 X-36.8035 Y4.4524 
G01 X-36.8035 Y5.1960 
G01 X-37.3512 Y5.1960 
G01 X-37.7654 Y4.7818 
G01 X-38.7746 Y4.7818 
G01 X-39.4882 Y5.4954 
G01 X-39.4882 Y6.5046 
G01 X-38.7746 Y7.2182 
G01 X-37.7654 Y7.2182 
G01 X-37.0518 Y6.5046 
G01 X-37.0518 Y6.4640 
G01 X-36.3664 Y6.4640 
G01 X-36.3664 Y6.9057 
G01 X-35.9057 Y7.3664 
G01 X-35.2543 Y7.3664 
G01 X-34.7936 Y6.9057 
G01 X-34.7936 Y6.4640 
G01 X-34.6603 Y6.4640 
G01 X-34.6469 Y6.4840 
G01 X-34.5040 Y6.6269 
G01 X-34.3360 Y6.7392 
G01 X-34.1493 Y6.8166 
G01 X-33.9511 Y6.8560 
G01 X-31.9489 Y6.8560 
G01 X-31.7507 Y6.8166 
G01 X-31.5640 Y6.7392 
G01 X-31.3960 Y6.6269 
G01 X-31.2531 Y6.4840 
G01 X-31.2397 Y6.4640 
G01 X-25.2210 Y6.4640 
G01 X-25.2210 Y6.8201 
G01 X-25.2018 Y6.8664 
G01 X-25.1664 Y6.9018 
G01 X-25.1201 Y6.9210 
G00 Z2.0000 
G00 X-47.1251 Y12.4110 
G01 Z-0.3000 F100.00 
G01 X-47.0421 Y12.4110 F50.00 
G01 X-47.0237 Y12.4879 
G01 X-47.0193 Y12.5194 
G01 X-47.0092 Y12.5485 
G01 X-47.0020 Y12.5784 
G01 X-46.9887 Y12.6073 
G01 X-46.9783 Y12.6373 
G01 X-46.9627 Y12.6639 
G01 X-46.9498 Y12.6918 
G01 X-46.9311 Y12.7176 
G01 X-46.9150 Y12.7450 
G01 X-46.8945 Y12.7680 
G01 X-46.8764 Y12.7929 
G01 X-46.8531 Y12.8145 
G01 X-46.8320 Y12.8383 
G01 X-46.8074 Y12.8568 
G01 X-46.7848 Y12.8777 
G01 X-46.7577 Y12.8944 
G01 X-46.7323 Y12.9135 
G01 X-46.7046 Y12.9270 
G01 X-46.6783 Y12.9431 
G01 X-46.6485 Y12.9541 
G01 X-46.6199 Y12.9679 
G01 X-46.5901 Y12.9757 
G01 X-46.5612 Y12.9863 
G01 X-46.5298 Y12.9913 
G01 X-45.4535 Y13.2710 
G01 X-42.9913 Y15.6903 
G01 X-40.0040 Y18.6776 
G01 X-40.0040 Y21.9624 
G01 X-41.1325 Y23.0908 
G01 X-43.8876 Y25.8460 
G01 X-47.1190 Y25.8460 
G01 X-47.1190 Y25.8049 
G01 X-47.1382 Y25.7586 
G01 X-47.1736 Y25.7232 
G01 X-47.2199 Y25.7040 
G01 X-48.8701 Y25.7040 
G01 X-48.9164 Y25.7232 
G01 X-48.9518 Y25.7586 
G01 X-48.9710 Y25.8049 
G01 X-48.9710 Y26.1310 
G01 X-50.1224 Y26.1310 
G01 X-50.1627 Y26.1390 
G01 X-50.8351 Y26.1390 
G01 X-50.8814 Y26.1582 
G01 X-50.9168 Y26.1936 
G01 X-50.9360 Y26.2399 
G01 X-50.9360 Y27.2901 
G01 X-50.9168 Y27.3364 
G01 X-50.8814 Y27.3718 
G01 X-50.8351 Y27.3910 
G01 X-50.1627 Y27.3910 
G01 X-50.1224 Y27.3990 
G01 X-48.2676 Y27.3990 
G01 X-48.1451 Y27.3746 
G01 X-48.0297 Y27.3268 
G01 X-47.9258 Y27.2575 
G01 X-47.2199 Y27.2560 
G01 X-47.1736 Y27.2368 
G01 X-47.1382 Y27.2014 
G01 X-47.1190 Y27.1551 
G01 X-47.1190 Y27.1140 
G01 X-43.5626 Y27.1140 
G01 X-43.4401 Y27.0896 
G01 X-43.3247 Y27.0418 
G01 X-43.2208 Y26.9725 
G01 X-40.6400 Y24.3916 
G01 X-40.3757 Y24.6559 
G01 X-40.9455 Y25.2257 
G01 X-40.9455 Y26.2243 
G01 X-40.2393 Y26.9305 
G01 X-39.2407 Y26.9305 
G01 X-38.5345 Y26.2243 
G01 X-38.5345 Y25.2257 
G01 X-39.1060 Y24.6542 
G01 X-39.1060 Y24.3326 
G01 X-39.1304 Y24.2101 
G01 X-39.1782 Y24.0947 
G01 X-39.2475 Y23.9908 
G01 X-39.7434 Y23.4950 
G01 X-39.1074 Y22.8590 
G01 X-27.5676 Y22.8590 
G01 X-27.0742 Y23.3525 
G01 X-26.9703 Y23.4218 
G01 X-26.8549 Y23.4696 
G01 X-26.7324 Y23.4940 
G01 X-19.3126 Y23.4940 
G01 X-17.6611 Y25.1455 
G01 X-17.6280 Y25.1944 
G01 X-17.6280 Y25.7428 
G01 X-17.1078 Y26.2630 
G01 X-16.3722 Y26.2630 
G01 X-15.8520 Y25.7428 
G01 X-15.8520 Y25.0072 
G01 X-16.3722 Y24.4870 
G01 X-16.5756 Y24.4870 
G01 X-16.6439 Y24.3862 
G01 X-16.6775 Y24.3358 
G01 X-16.7231 Y24.2903 
G01 X-18.5575 Y22.4558 
G01 X-18.6458 Y22.3675 
G01 X-18.7497 Y22.2982 
G01 X-18.8651 Y22.2504 
G01 X-18.9876 Y22.2260 
G01 X-26.4074 Y22.2260 
G01 X-26.6710 Y21.9624 
G01 X-26.6710 Y18.7166 
G01 X-26.4840 Y18.6392 
G01 X-26.3160 Y18.5269 
G01 X-26.1731 Y18.3840 
G01 X-26.0608 Y18.2160 
G01 X-25.9834 Y18.0293 
G01 X-25.9440 Y17.8311 
G01 X-25.9440 Y17.6289 
G01 X-25.9834 Y17.4307 
G01 X-26.0608 Y17.2440 
G01 X-26.1731 Y17.0760 
G01 X-26.3160 Y16.9331 
G01 X-26.4840 Y16.8208 
G01 X-26.6707 Y16.7434 
G01 X-26.8689 Y16.7040 
G01 X-28.8711 Y16.7040 
G01 X-29.0693 Y16.7434 
G01 X-29.2560 Y16.8208 
G01 X-29.4240 Y16.9331 
G01 X-29.5669 Y17.0760 
G01 X-29.6792 Y17.2440 
G01 X-29.7566 Y17.4307 
G01 X-29.7960 Y17.6289 
G01 X-29.7960 Y17.8311 
G01 X-29.7566 Y18.0293 
G01 X-29.6792 Y18.2160 
G01 X-29.5669 Y18.3840 
G01 X-29.4240 Y18.5269 
G01 X-29.2560 Y18.6392 
G01 X-29.0693 Y18.7166 
G01 X-28.8711 Y18.7560 
G01 X-27.9390 Y18.7560 
G01 X-27.9390 Y21.5910 
G01 X-38.7360 Y21.5910 
G01 X-38.7360 Y18.3526 
G01 X-38.7604 Y18.2301 
G01 X-38.8082 Y18.1147 
G01 X-38.8775 Y18.0108 
G01 X-42.0545 Y14.8339 
G01 X-42.0987 Y14.7897 
G01 X-42.1408 Y14.7475 
G01 X-44.6706 Y12.2626 
G01 X-44.6980 Y12.2317 
G01 X-44.7150 Y12.2189 
G01 X-44.7302 Y12.2040 
G01 X-44.7647 Y12.1814 
G01 X-44.7977 Y12.1565 
G01 X-44.8168 Y12.1472 
G01 X-44.8346 Y12.1355 
G01 X-44.8729 Y12.1201 
G01 X-44.9101 Y12.1021 
G01 X-44.9307 Y12.0967 
G01 X-44.9504 Y12.0888 
G01 X-44.9910 Y12.0811 
G01 X-45.8721 Y11.8521 
G01 X-45.9740 Y11.4267 
G01 X-45.9740 Y10.7599 
G01 X-45.9932 Y10.7136 
G01 X-46.0286 Y10.6782 
G01 X-46.0749 Y10.6590 
G01 X-47.1251 Y10.6590 
G01 X-47.1714 Y10.6782 
G01 X-47.2068 Y10.7136 
G01 X-47.2260 Y10.7599 
G01 X-47.2260 Y11.4346 
G01 X-47.2359 Y11.4972 
G01 X-47.2311 Y11.6220 
G01 X-47.2260 Y11.6433 
G01 X-47.2260 Y12.3101 
G01 X-47.2068 Y12.3564 
G01 X-47.1714 Y12.3918 
G01 X-47.1251 Y12.4110 
G00 Z2.0000 
G00 X-23.6149 Y15.4840 
G01 Z-0.3000 F100.00 
G01 X-24.3460 Y15.4840 F50.00 
G01 X-24.3697 Y15.4682 
G01 X-24.4851 Y15.4204 
G01 X-24.6076 Y15.3960 
G01 X-31.2397 Y15.3960 
G01 X-31.2531 Y15.3760 
G01 X-31.3960 Y15.2331 
G01 X-31.5640 Y15.1208 
G01 X-31.7507 Y15.0434 
G01 X-31.9489 Y15.0040 
G01 X-33.9511 Y15.0040 
G01 X-34.1493 Y15.0434 
G01 X-34.3360 Y15.1208 
G01 X-34.5040 Y15.2331 
G01 X-34.6469 Y15.3760 
G01 X-34.7592 Y15.5440 
G01 X-34.8366 Y15.7307 
G01 X-34.8760 Y15.9289 
G01 X-34.8760 Y16.1311 
G01 X-34.8366 Y16.3293 
G01 X-34.7592 Y16.5160 
G01 X-34.6469 Y16.6840 
G01 X-34.5040 Y16.8269 
G01 X-34.3360 Y16.9392 
G01 X-34.1493 Y17.0166 
G01 X-33.9511 Y17.0560 
G01 X-31.9489 Y17.0560 
G01 X-31.7507 Y17.0166 
G01 X-31.5640 Y16.9392 
G01 X-31.3960 Y16.8269 
G01 X-31.2531 Y16.6840 
G01 X-31.2397 Y16.6640 
G01 X-25.3660 Y16.6640 
G01 X-25.3660 Y16.9351 
G01 X-25.3468 Y16.9814 
G01 X-25.3114 Y17.0168 
G01 X-25.2651 Y17.0360 
G01 X-23.6149 Y17.0360 
G01 X-23.5686 Y17.0168 
G01 X-23.5332 Y16.9814 
G01 X-23.5140 Y16.9351 
G01 X-23.5140 Y15.5849 
G01 X-23.5332 Y15.5386 
G01 X-23.5686 Y15.5032 
G01 X-23.6149 Y15.4840 
G00 Z2.0000 
G00 X-49.8851 Y12.4310 
G01 Z-0.3000 F100.00 
G01 X-48.2349 Y12.4310 F50.00 
G01 X-48.1886 Y12.4118 
G01 X-48.1532 Y12.3764 
G01 X-48.1340 Y12.3301 
G01 X-48.1340 Y10.9799 
G01 X-48.1532 Y10.9336 
G01 X-48.1886 Y10.8982 
G01 X-48.2349 Y10.8790 
G01 X-48.4260 Y10.8790 
G01 X-48.4260 Y10.2326 
G01 X-47.2340 Y9.0406 
G01 X-47.2340 Y9.7174 
G01 X-47.2260 Y9.7577 
G01 X-47.2260 Y10.4301 
G01 X-47.2068 Y10.4764 
G01 X-47.1714 Y10.5118 
G01 X-47.1251 Y10.5310 
G01 X-46.0749 Y10.5310 
G01 X-46.0286 Y10.5118 
G01 X-45.9932 Y10.4764 
G01 X-45.9740 Y10.4301 
G01 X-45.9740 Y9.7577 
G01 X-45.9660 Y9.7174 
G01 X-45.9660 Y8.3814 
G01 X-45.9471 Y8.3814 
G01 X-45.7952 Y8.3512 
G01 X-45.6521 Y8.2919 
G01 X-45.5233 Y8.2058 
G01 X-45.4138 Y8.0963 
G01 X-45.3277 Y7.9675 
G01 X-45.2684 Y7.8244 
G01 X-45.2382 Y7.6725 
G01 X-45.2382 Y7.5175 
G01 X-45.2684 Y7.3656 
G01 X-45.3277 Y7.2225 
G01 X-45.4138 Y7.0937 
G01 X-45.5233 Y6.9842 
G01 X-45.6521 Y6.8981 
G01 X-45.7952 Y6.8388 
G01 X-45.9471 Y6.8086 
G01 X-47.4229 Y6.8086 
G01 X-47.5748 Y6.8388 
G01 X-47.7179 Y6.8981 
G01 X-47.8467 Y6.9842 
G01 X-47.9562 Y7.0937 
G01 X-48.0423 Y7.2225 
G01 X-48.1016 Y7.3656 
G01 X-48.1318 Y7.5175 
G01 X-48.1318 Y7.6725 
G01 X-48.1016 Y7.8244 
G01 X-48.0423 Y7.9675 
G01 X-48.0070 Y8.0204 
G01 X-49.5525 Y9.5658 
G01 X-49.6218 Y9.6697 
G01 X-49.6696 Y9.7851 
G01 X-49.6940 Y9.9076 
G01 X-49.6940 Y10.8790 
G01 X-49.8851 Y10.8790 
G01 X-49.9314 Y10.8982 
G01 X-49.9668 Y10.9336 
G01 X-49.9860 Y10.9799 
G01 X-49.9860 Y12.3301 
G01 X-49.9668 Y12.3764 
G01 X-49.9314 Y12.4118 
G01 X-49.8851 Y12.4310 
G00 Z2.0000 
G00 X-26.8689 Y13.3040 
G01 Z-0.3000 F100.00 
G01 X-28.8711 Y13.3040 F50.00 
G01 X-29.0693 Y13.3434 
G01 X-29.2560 Y13.4208 
G01 X-29.4240 Y13.5331 
G01 X-29.5669 Y13.6760 
G01 X-29.6792 Y13.8440 
G01 X-29.7566 Y14.0307 
G01 X-29.7960 Y14.2289 
G01 X-29.7960 Y14.4311 
G01 X-29.7566 Y14.6293 
G01 X-29.6792 Y14.8160 
G01 X-29.5669 Y14.9840 
G01 X-29.4240 Y15.1269 
G01 X-29.2560 Y15.2392 
G01 X-29.0693 Y15.3166 
G01 X-28.8711 Y15.3560 
G01 X-26.8689 Y15.3560 
G01 X-26.6707 Y15.3166 
G01 X-26.4840 Y15.2392 
G01 X-26.3160 Y15.1269 
G01 X-26.1731 Y14.9840 
G01 X-10.1850 Y14.9840 
G01 X-9.9818 Y15.1872 
G01 X-9.2882 Y15.1872 
G01 X-8.7978 Y14.6968 
G01 X-8.7978 Y14.0032 
G01 X-9.2882 Y13.5128 
G01 X-9.9818 Y13.5128 
G01 X-10.1850 Y13.7160 
G01 X-26.1463 Y13.7160 
G01 X-26.1731 Y13.6760 
G01 X-26.3160 Y13.5331 
G01 X-26.4840 Y13.4208 
G01 X-26.6707 Y13.3434 
G01 X-26.8689 Y13.3040 
G00 Z2.0000 
G00 X-31.9489 Y8.2040 
G01 Z-0.3000 F100.00 
G01 X-33.9511 Y8.2040 F50.00 
G01 X-34.1493 Y8.2434 
G01 X-34.3360 Y8.3208 
G01 X-34.5040 Y8.4331 
G01 X-34.6469 Y8.5760 
G01 X-34.6603 Y8.5960 
G01 X-35.6042 Y8.5960 
G01 X-36.0407 Y8.1595 
G01 X-37.0393 Y8.1595 
G01 X-37.7455 Y8.8657 
G01 X-37.7455 Y8.8910 
G01 X-37.8374 Y8.8910 
G01 X-40.0060 Y6.7224 
G01 X-40.0060 Y1.2076 
G01 X-40.0304 Y1.0851 
G01 X-40.0782 Y0.9697 
G01 X-40.1475 Y0.8658 
G01 X-40.2358 Y0.7775 
G01 X-40.8708 Y0.1425 
G01 X-40.9747 Y0.0732 
G01 X-41.0901 Y0.0254 
G01 X-41.2126 Y0.0010 
G01 X-48.3224 Y0.0010 
G01 X-48.4449 Y0.0254 
G01 X-48.5603 Y0.0732 
G01 X-48.6641 Y0.1425 
G01 X-48.7525 Y0.2308 
G01 X-50.1906 Y1.6690 
G01 X-50.5851 Y1.6690 
G01 X-50.6314 Y1.6882 
G01 X-50.6668 Y1.7236 
G01 X-50.6860 Y1.7699 
G01 X-50.6860 Y2.8201 
G01 X-50.6668 Y2.8664 
G01 X-50.6314 Y2.9018 
G01 X-50.5851 Y2.9210 
G01 X-49.9127 Y2.9210 
G01 X-49.8724 Y2.9290 
G01 X-49.7476 Y2.9290 
G01 X-49.7073 Y2.9210 
G01 X-49.0349 Y2.9210 
G01 X-48.9886 Y2.9018 
G01 X-48.9532 Y2.8664 
G01 X-48.9340 Y2.8201 
G01 X-48.9340 Y2.2056 
G01 X-47.9974 Y1.2690 
G01 X-41.5376 Y1.2690 
G01 X-41.2740 Y1.5326 
G01 X-41.2740 Y7.0474 
G01 X-41.2496 Y7.1699 
G01 X-41.2018 Y7.2853 
G01 X-41.1325 Y7.3892 
G01 X-38.5925 Y9.9291 
G01 X-38.5042 Y10.0175 
G01 X-38.4003 Y10.0868 
G01 X-38.2849 Y10.1346 
G01 X-38.1624 Y10.1590 
G01 X-37.4508 Y10.1590 
G01 X-37.0393 Y10.5705 
G01 X-36.0407 Y10.5705 
G01 X-35.3345 Y9.8643 
G01 X-34.6603 Y9.8640 
G01 X-34.6469 Y9.8840 
G01 X-34.5040 Y10.0269 
G01 X-34.3360 Y10.1392 
G01 X-34.1493 Y10.2166 
G01 X-33.9511 Y10.2560 
G01 X-31.9489 Y10.2560 
G01 X-31.7507 Y10.2166 
G01 X-31.5640 Y10.1392 
G01 X-31.3960 Y10.0269 
G01 X-31.2531 Y9.8840 
G01 X-31.1408 Y9.7160 
G01 X-31.0634 Y9.5293 
G01 X-31.0240 Y9.3311 
G01 X-31.0240 Y9.1289 
G01 X-31.0634 Y8.9307 
G01 X-31.1408 Y8.7440 
G01 X-31.2531 Y8.5760 
G01 X-31.3960 Y8.4331 
G01 X-31.5640 Y8.3208 
G01 X-31.7507 Y8.2434 
G01 X-31.9489 Y8.2040 
G00 Z2.0000 
G00 X-64.1848 Y15.1595 
G01 Z-0.3000 F100.00 
G01 X-64.1572 Y15.2626 F50.00 
G01 X-64.1038 Y15.3550 
G01 X-64.0283 Y15.4305 
G01 X-63.9359 Y15.4839 
G01 X-63.8328 Y15.5115 
G01 X-63.7260 Y15.5115 
G01 X-63.6229 Y15.4839 
G01 X-63.5305 Y15.4305 
G01 X-63.4550 Y15.3550 
G01 X-63.4016 Y15.2626 
G01 X-63.3740 Y15.1595 
G01 X-63.3740 Y13.7308 
G01 X-63.4016 Y13.6277 
G01 X-63.4550 Y13.5353 
G01 X-63.5305 Y13.4598 
G01 X-63.6229 Y13.4064 
G01 X-63.7260 Y13.3788 
G01 X-63.8328 Y13.3788 
G01 X-63.9359 Y13.4064 
G01 X-64.0283 Y13.4598 
G01 X-65.2666 Y14.6981 
G01 X-65.3569 Y14.6077 
G01 X-65.3569 Y14.2826 
G01 X-65.1074 Y14.0331 
G01 X-65.0540 Y13.9407 
G01 X-65.0264 Y13.8376 
G01 X-65.0264 Y13.7308 
G01 X-65.0540 Y13.6277 
G01 X-65.1074 Y13.5353 
G01 X-65.1829 Y13.4598 
G01 X-65.2753 Y13.4064 
G01 X-65.3784 Y13.3788 
G01 X-65.4852 Y13.3788 
G01 X-65.5883 Y13.4064 
G01 X-65.6807 Y13.4598 
G01 X-66.0867 Y13.8658 
G01 X-66.1401 Y13.9582 
G01 X-66.1677 Y14.0613 
G01 X-66.1677 Y14.8290 
G01 X-66.1401 Y14.9321 
G01 X-66.0867 Y15.0246 
G01 X-65.6807 Y15.4305 
G01 X-65.5883 Y15.4839 
G01 X-65.5116 Y15.5044 
G01 X-65.4852 Y15.5115 
G01 X-65.0480 Y15.5115 
G01 X-64.9448 Y15.4839 
G01 X-64.8524 Y15.4305 
G01 X-64.7769 Y15.3550 
G01 X-64.1848 Y14.7629 
G01 X-64.1848 Y15.1595 
G00 Z2.0000 
G00 X-63.4550 Y12.4739 
G01 Z-0.3000 F100.00 
G01 X-63.4016 Y12.3815 F50.00 
G01 X-63.3740 Y12.2784 
G01 X-63.3740 Y12.1716 
G01 X-63.4016 Y12.0685 
G01 X-63.4550 Y11.9761 
G01 X-63.5305 Y11.9006 
G01 X-63.6229 Y11.8472 
G01 X-63.7260 Y11.8196 
G01 X-63.8328 Y11.8196 
G01 X-63.9359 Y11.8472 
G01 X-64.0283 Y11.9006 
G01 X-64.6083 Y12.4806 
G01 X-64.9334 Y12.4806 
G01 X-65.5134 Y11.9006 
G01 X-65.6058 Y11.8472 
G01 X-65.7089 Y11.8196 
G01 X-65.8157 Y11.8196 
G01 X-65.9188 Y11.8472 
G01 X-66.0112 Y11.9006 
G01 X-66.0867 Y11.9761 
G01 X-66.1401 Y12.0685 
G01 X-66.1677 Y12.1716 
G01 X-66.1677 Y12.2784 
G01 X-66.1401 Y12.3815 
G01 X-66.0867 Y12.4739 
G01 X-65.3502 Y13.2104 
G01 X-65.2909 Y13.2446 
G01 X-65.2578 Y13.2637 
G01 X-65.1591 Y13.2902 
G01 X-64.3870 Y13.2914 
G01 X-64.2839 Y13.2637 
G01 X-64.1914 Y13.2104 
G01 X-64.1160 Y13.1349 
G01 X-63.4550 Y12.4739 
G00 Z2.0000 
G00 X-66.0867 Y11.1266 
G01 Z-0.3000 F100.00 
G01 X-65.6807 Y11.5325 F50.00 
G01 X-65.5883 Y11.5859 
G01 X-65.4852 Y11.6135 
G01 X-65.3784 Y11.6135 
G01 X-65.2753 Y11.5859 
G01 X-65.1829 Y11.5325 
G01 X-65.1074 Y11.4571 
G01 X-65.0540 Y11.3646 
G01 X-65.0264 Y11.2615 
G01 X-65.0264 Y11.1548 
G01 X-65.0540 Y11.0517 
G01 X-65.1074 Y10.9592 
G01 X-65.3569 Y10.7097 
G01 X-65.3569 Y10.3846 
G01 X-65.2639 Y10.2916 
G01 X-64.2778 Y10.2916 
G01 X-64.1848 Y10.3846 
G01 X-64.1848 Y10.7097 
G01 X-64.4343 Y10.9592 
G01 X-64.4877 Y11.0517 
G01 X-64.5153 Y11.1548 
G01 X-64.5153 Y11.2615 
G01 X-64.4877 Y11.3646 
G01 X-64.4343 Y11.4571 
G01 X-64.3588 Y11.5325 
G01 X-64.2664 Y11.5859 
G01 X-64.1633 Y11.6135 
G01 X-64.0565 Y11.6135 
G01 X-63.9534 Y11.5859 
G01 X-63.8610 Y11.5325 
G01 X-63.4550 Y11.1266 
G01 X-63.4016 Y11.0341 
G01 X-63.3740 Y10.9310 
G01 X-63.3740 Y10.1633 
G01 X-63.4016 Y10.0602 
G01 X-63.4550 Y9.9678 
G01 X-63.8610 Y9.5618 
G01 X-63.9534 Y9.5084 
G01 X-64.0565 Y9.4808 
G01 X-65.4852 Y9.4808 
G01 X-65.5140 Y9.4885 
G01 X-65.5883 Y9.5084 
G01 X-65.6807 Y9.5618 
G01 X-66.0867 Y9.9678 
G01 X-66.1401 Y10.0602 
G01 X-66.1677 Y10.1633 
G01 X-66.1677 Y10.9310 
G01 X-66.1401 Y11.0341 
G01 X-66.0867 Y11.1266 
G00 Z2.0000 
G00 X-64.0283 Y9.3124 
G01 Z-0.3000 F100.00 
G01 X-63.9359 Y9.3657 F50.00 
G01 X-63.8328 Y9.3934 
G01 X-63.7260 Y9.3934 
G01 X-63.6229 Y9.3657 
G01 X-63.5305 Y9.3124 
G01 X-63.4550 Y9.2369 
G01 X-63.4016 Y9.1445 
G01 X-63.3740 Y9.0413 
G01 X-63.3740 Y8.9346 
G01 X-63.4016 Y8.8315 
G01 X-63.4550 Y8.7391 
G01 X-64.1160 Y8.0781 
G01 X-64.1914 Y8.0026 
G01 X-64.2839 Y7.9492 
G01 X-64.3870 Y7.9216 
G01 X-65.1547 Y7.9216 
G01 X-65.2578 Y7.9492 
G01 X-65.2909 Y7.9683 
G01 X-65.3502 Y8.0026 
G01 X-66.0867 Y8.7391 
G01 X-66.1401 Y8.8315 
G01 X-66.1677 Y8.9346 
G01 X-66.1677 Y9.0413 
G01 X-66.1401 Y9.1444 
G01 X-66.0867 Y9.2369 
G01 X-66.0112 Y9.3124 
G01 X-65.9188 Y9.3657 
G01 X-65.8157 Y9.3934 
G01 X-65.7089 Y9.3934 
G01 X-65.6058 Y9.3657 
G01 X-65.5134 Y9.3124 
G01 X-64.9334 Y8.7324 
G01 X-64.6083 Y8.7324 
G01 X-64.0283 Y9.3124 
G00 Z2.0000 
G00 X-71.4102 Y33.5160 
G01 Z-0.3000 F100.00 
G01 X-71.5488 Y33.5531 F50.00 
G01 X-71.6731 Y33.6249 
G01 X-71.7746 Y33.7264 
G01 X-71.8464 Y33.8507 
G01 X-71.8835 Y33.9893 
G01 X-71.8835 Y34.1329 
G01 X-71.8464 Y34.2715 
G01 X-71.7746 Y34.3958 
G01 X-71.6731 Y34.4973 
G01 X-71.5488 Y34.5690 
G01 X-71.4102 Y34.6062 
G01 X-68.9192 Y34.6062 
G01 X-68.9192 Y36.1091 
G01 X-68.8821 Y36.2477 
G01 X-68.8103 Y36.3720 
G01 X-68.7088 Y36.4735 
G01 X-68.5845 Y36.5453 
G01 X-68.4459 Y36.5824 
G01 X-68.3023 Y36.5824 
G01 X-68.1637 Y36.5453 
G01 X-68.0394 Y36.4735 
G01 X-67.9379 Y36.3720 
G01 X-67.8661 Y36.2477 
G01 X-67.8290 Y36.1091 
G01 X-67.8290 Y33.9893 
G01 X-67.8661 Y33.8507 
G01 X-67.9379 Y33.7264 
G01 X-68.0394 Y33.6249 
G01 X-68.1637 Y33.5531 
G01 X-68.3023 Y33.5160 
G01 X-68.4459 Y33.5160 
G01 X-71.4102 Y33.5160 
G00 Z2.0000 
G00 X-68.3023 Y30.3458 
G01 Z-0.3000 F100.00 
G01 X-68.1637 Y30.3087 F50.00 
G01 X-68.0394 Y30.2369 
G01 X-67.9379 Y30.1354 
G01 X-67.8661 Y30.0111 
G01 X-67.8290 Y29.8725 
G01 X-67.8290 Y29.7290 
G01 X-67.8661 Y29.5903 
G01 X-67.9379 Y29.4660 
G01 X-68.0394 Y29.3645 
G01 X-68.1637 Y29.2928 
G01 X-68.3023 Y29.2556 
G01 X-70.7933 Y29.2556 
G01 X-70.7933 Y28.7408 
G01 X-70.8305 Y28.6022 
G01 X-70.9022 Y28.4779 
G01 X-71.0037 Y28.3764 
G01 X-71.1280 Y28.3047 
G01 X-71.2667 Y28.2675 
G01 X-71.4102 Y28.2675 
G01 X-71.5488 Y28.3047 
G01 X-71.6731 Y28.3764 
G01 X-71.7746 Y28.4779 
G01 X-71.8464 Y28.6022 
G01 X-71.8835 Y28.7408 
G01 X-71.8835 Y30.8606 
G01 X-71.8464 Y30.9992 
G01 X-71.7746 Y31.1235 
G01 X-71.6731 Y31.2250 
G01 X-71.5488 Y31.2968 
G01 X-71.4102 Y31.3339 
G01 X-71.2667 Y31.3339 
G01 X-71.1280 Y31.2968 
G01 X-71.0037 Y31.2250 
G01 X-70.9022 Y31.1235 
G01 X-70.8305 Y30.9992 
G01 X-70.7933 Y30.8606 
G01 X-70.7933 Y30.3458 
G01 X-68.3023 Y30.3458 
G00 Z2.0000 
G00 X-68.3023 Y25.8587 
G01 Z-0.3000 F100.00 
G01 X-68.1637 Y25.8216 F50.00 
G01 X-68.0394 Y25.7498 
G01 X-67.9379 Y25.6483 
G01 X-67.8661 Y25.5240 
G01 X-67.8290 Y25.3854 
G01 X-67.8290 Y25.2419 
G01 X-67.8661 Y25.1032 
G01 X-67.9379 Y24.9789 
G01 X-68.0394 Y24.8774 
G01 X-68.1637 Y24.8057 
G01 X-68.3023 Y24.7685 
G01 X-70.4221 Y24.7685 
G01 X-70.5607 Y24.8057 
G01 X-70.6850 Y24.8774 
G01 X-71.6731 Y25.8655 
G01 X-71.7746 Y25.9670 
G01 X-71.8455 Y26.0898 
G01 X-71.8835 Y26.2300 
G01 X-71.8835 Y26.3735 
G01 X-71.8464 Y26.5121 
G01 X-71.7746 Y26.6364 
G01 X-70.7865 Y27.6245 
G01 X-70.6850 Y27.7260 
G01 X-70.5607 Y27.7978 
G01 X-70.4221 Y27.8349 
G01 X-68.3023 Y27.8349 
G01 X-68.1637 Y27.7978 
G01 X-68.0394 Y27.7260 
G01 X-67.9379 Y27.6245 
G01 X-67.8661 Y27.5002 
G01 X-67.8290 Y27.3616 
G01 X-67.8290 Y27.2181 
G01 X-67.8661 Y27.0794 
G01 X-67.9379 Y26.9551 
G01 X-68.0394 Y26.8537 
G01 X-68.1637 Y26.7819 
G01 X-68.3023 Y26.7447 
G01 X-69.3112 Y26.7447 
G01 X-69.3112 Y25.8587 
G01 X-68.3023 Y25.8587 
G00 Z2.0000 
G00 X-71.1791 Y4.3994 
G01 Z-0.3000 F100.00 
G01 X-71.0548 Y4.4712 F50.00 
G01 X-70.9161 Y4.5084 
G01 X-68.7964 Y4.5084 
G01 X-68.6637 Y4.4728 
G01 X-68.5335 Y4.3994 
G01 X-68.4320 Y4.2980 
G01 X-67.9379 Y3.8039 
G01 X-67.8661 Y3.6796 
G01 X-67.8306 Y3.5469 
G01 X-67.8290 Y1.9153 
G01 X-67.8661 Y1.7766 
G01 X-67.9379 Y1.6523 
G01 X-68.0394 Y1.5509 
G01 X-68.1637 Y1.4791 
G01 X-68.3023 Y1.4419 
G01 X-71.4102 Y1.4419 
G01 X-71.5488 Y1.4791 
G01 X-71.6731 Y1.5509 
G01 X-71.7746 Y1.6523 
G01 X-71.8464 Y1.7766 
G01 X-71.8835 Y1.9153 
G01 X-71.8835 Y3.5410 
G01 X-71.8464 Y3.6796 
G01 X-71.7746 Y3.8039 
G01 X-71.6731 Y3.9054 
G01 X-71.1791 Y4.3994 
G00 Z2.0000 
G00 X-68.3023 Y6.0311 
G01 Z-0.3000 F100.00 
G01 X-68.1637 Y5.9940 F50.00 
G01 X-68.0394 Y5.9222 
G01 X-67.9379 Y5.8207 
G01 X-67.8661 Y5.6964 
G01 X-67.8290 Y5.5578 
G01 X-67.8290 Y5.4143 
G01 X-67.8661 Y5.2756 
G01 X-67.9379 Y5.1513 
G01 X-68.0394 Y5.0498 
G01 X-68.1637 Y4.9781 
G01 X-68.3023 Y4.9409 
G01 X-70.4221 Y4.9409 
G01 X-70.5607 Y4.9781 
G01 X-70.6850 Y5.0498 
G01 X-71.6731 Y6.0379 
G01 X-71.7746 Y6.1394 
G01 X-71.8455 Y6.2622 
G01 X-71.8835 Y6.4024 
G01 X-71.8835 Y6.5459 
G01 X-71.8464 Y6.6845 
G01 X-71.7746 Y6.8088 
G01 X-70.7865 Y7.7969 
G01 X-70.6850 Y7.8984 
G01 X-70.5607 Y7.9702 
G01 X-70.4221 Y8.0073 
G01 X-68.3023 Y8.0073 
G01 X-68.1637 Y7.9702 
G01 X-68.0394 Y7.8984 
G01 X-67.9379 Y7.7969 
G01 X-67.8661 Y7.6726 
G01 X-67.8290 Y7.5340 
G01 X-67.8290 Y7.3905 
G01 X-67.8661 Y7.2518 
G01 X-67.9379 Y7.1276 
G01 X-68.0394 Y7.0261 
G01 X-68.1637 Y6.9543 
G01 X-68.3023 Y6.9172 
G01 X-69.3112 Y6.9172 
G01 X-69.3112 Y6.0311 
G01 X-68.3023 Y6.0311 
G00 Z2.0000 
G00 X-68.3023 Y9.5301 
G01 Z-0.3000 F100.00 
G01 X-68.1637 Y9.4930 F50.00 
G01 X-68.0394 Y9.4212 
G01 X-67.9379 Y9.3197 
G01 X-67.8661 Y9.1954 
G01 X-67.8290 Y9.0568 
G01 X-67.8290 Y8.9132 
G01 X-67.8661 Y8.7746 
G01 X-67.9379 Y8.6503 
G01 X-68.0394 Y8.5488 
G01 X-68.1637 Y8.4771 
G01 X-68.3023 Y8.4399 
G01 X-71.4102 Y8.4399 
G01 X-71.5488 Y8.4771 
G01 X-71.6731 Y8.5488 
G01 X-71.7746 Y8.6503 
G01 X-71.8464 Y8.7746 
G01 X-71.8835 Y8.9132 
G01 X-71.8835 Y10.5389 
G01 X-71.8464 Y10.6776 
G01 X-71.7746 Y10.8019 
G01 X-71.2806 Y11.2959 
G01 X-71.1791 Y11.3974 
G01 X-71.0548 Y11.4692 
G01 X-70.9161 Y11.5063 
G01 X-69.7845 Y11.5063 
G01 X-69.6459 Y11.4692 
G01 X-69.5216 Y11.3974 
G01 X-69.1152 Y10.9910 
G01 X-68.7088 Y11.3974 
G01 X-68.5845 Y11.4692 
G01 X-68.4459 Y11.5063 
G01 X-68.3023 Y11.5063 
G01 X-68.1637 Y11.4692 
G01 X-68.0394 Y11.3974 
G01 X-67.9379 Y11.2959 
G01 X-67.8661 Y11.1716 
G01 X-67.8290 Y11.0330 
G01 X-67.8290 Y10.8895 
G01 X-67.8661 Y10.7508 
G01 X-67.9379 Y10.6265 
G01 X-68.8171 Y9.7473 
G01 X-68.8171 Y9.5301 
G01 X-68.3023 Y9.5301 
G00 Z2.0000 
G00 X-67.8290 Y13.5439 
G01 Z-0.3000 F100.00 
G01 X-67.8290 Y12.4122 F50.00 
G01 X-67.8661 Y12.2736 
G01 X-67.9379 Y12.1493 
G01 X-68.0394 Y12.0478 
G01 X-68.1637 Y11.9761 
G01 X-68.3023 Y11.9389 
G01 X-68.4459 Y11.9389 
G01 X-68.5845 Y11.9761 
G01 X-68.7088 Y12.0478 
G01 X-68.8103 Y12.1493 
G01 X-68.8821 Y12.2736 
G01 X-68.9192 Y12.4122 
G01 X-68.9192 Y12.4330 
G01 X-70.7933 Y12.4330 
G01 X-70.7933 Y12.4122 
G01 X-70.8305 Y12.2736 
G01 X-70.9022 Y12.1493 
G01 X-71.0037 Y12.0478 
G01 X-71.1280 Y11.9761 
G01 X-71.2667 Y11.9389 
G01 X-71.4102 Y11.9389 
G01 X-71.5488 Y11.9761 
G01 X-71.6731 Y12.0478 
G01 X-71.7746 Y12.1493 
G01 X-71.8464 Y12.2736 
G01 X-71.8835 Y12.4122 
G01 X-71.8835 Y13.5439 
G01 X-71.8464 Y13.6825 
G01 X-71.7746 Y13.8068 
G01 X-71.6731 Y13.9083 
G01 X-71.5488 Y13.9801 
G01 X-71.4102 Y14.0172 
G01 X-71.2667 Y14.0172 
G01 X-71.1280 Y13.9801 
G01 X-71.0037 Y13.9083 
G01 X-70.9022 Y13.8068 
G01 X-70.8305 Y13.6825 
G01 X-70.7933 Y13.5439 
G01 X-70.7933 Y13.5232 
G01 X-68.9192 Y13.5232 
G01 X-68.9192 Y13.5439 
G01 X-68.8821 Y13.6825 
G01 X-68.8103 Y13.8068 
G01 X-68.7088 Y13.9083 
G01 X-68.5845 Y13.9801 
G01 X-68.4459 Y14.0172 
G01 X-68.3023 Y14.0172 
G01 X-68.1637 Y13.9801 
G01 X-68.0394 Y13.9083 
G01 X-67.9379 Y13.8068 
G01 X-67.8661 Y13.6825 
G01 X-67.8290 Y13.5439 
G00 Z2.0000 
G00 X-71.4102 Y14.2716 
G01 Z-0.3000 F100.00 
G01 X-71.5488 Y14.3087 F50.00 
G01 X-71.6731 Y14.3805 
G01 X-71.7746 Y14.4820 
G01 X-71.8464 Y14.6063 
G01 X-71.8835 Y14.7449 
G01 X-71.8835 Y14.8884 
G01 X-71.8464 Y15.0271 
G01 X-71.7746 Y15.1514 
G01 X-71.6731 Y15.2529 
G01 X-71.5488 Y15.3246 
G01 X-71.4102 Y15.3618 
G01 X-69.0939 Y15.3618 
G01 X-68.9192 Y15.5365 
G01 X-68.9192 Y16.0730 
G01 X-69.0939 Y16.2478 
G01 X-71.4102 Y16.2478 
G01 X-71.5488 Y16.2849 
G01 X-71.6731 Y16.3567 
G01 X-71.7746 Y16.4582 
G01 X-71.8464 Y16.5825 
G01 X-71.8835 Y16.7211 
G01 X-71.8835 Y16.8646 
G01 X-71.8464 Y17.0033 
G01 X-71.7746 Y17.1276 
G01 X-71.6731 Y17.2291 
G01 X-71.5488 Y17.3008 
G01 X-71.4102 Y17.3380 
G01 X-68.7964 Y17.3380 
G01 X-68.6637 Y17.3024 
G01 X-68.5335 Y17.2291 
G01 X-68.4320 Y17.1276 
G01 X-67.9379 Y16.6335 
G01 X-67.8661 Y16.5092 
G01 X-67.8306 Y16.3765 
G01 X-67.8290 Y15.2390 
G01 X-67.8661 Y15.1003 
G01 X-67.9379 Y14.9760 
G01 X-68.0394 Y14.8745 
G01 X-68.5335 Y14.3805 
G01 X-68.6578 Y14.3087 
G01 X-68.7964 Y14.2716 
G01 X-68.9399 Y14.2716 
G01 X-71.4102 Y14.2716 
G00 Z2.0000 
G00 X-71.1791 Y20.7281 
G01 Z-0.3000 F100.00 
G01 X-71.0548 Y20.7998 F50.00 
G01 X-70.9161 Y20.8370 
G01 X-70.7726 Y20.8370 
G01 X-70.6340 Y20.7998 
G01 X-70.5097 Y20.7281 
G01 X-70.4082 Y20.6266 
G01 X-70.3364 Y20.5023 
G01 X-70.2993 Y20.3636 
G01 X-70.2993 Y20.2201 
G01 X-70.3364 Y20.0815 
G01 X-70.4082 Y19.9572 
G01 X-70.7933 Y19.5720 
G01 X-70.7933 Y19.0355 
G01 X-70.6186 Y18.8607 
G01 X-70.5761 Y18.8607 
G01 X-70.4014 Y19.0355 
G01 X-70.4014 Y19.8696 
G01 X-70.3642 Y20.0082 
G01 X-70.2925 Y20.1325 
G01 X-69.7984 Y20.6266 
G01 X-69.6969 Y20.7281 
G01 X-69.5726 Y20.7998 
G01 X-69.4340 Y20.8370 
G01 X-68.7964 Y20.8370 
G01 X-68.6578 Y20.7998 
G01 X-68.5335 Y20.7281 
G01 X-68.4320 Y20.6266 
G01 X-67.9472 Y20.1418 
G01 X-67.8661 Y20.0082 
G01 X-67.8290 Y19.8696 
G01 X-67.8290 Y18.7379 
G01 X-67.8661 Y18.5993 
G01 X-67.9379 Y18.4750 
G01 X-68.5335 Y17.8795 
G01 X-68.6578 Y17.8077 
G01 X-68.7964 Y17.7706 
G01 X-68.9399 Y17.7706 
G01 X-69.0786 Y17.8077 
G01 X-69.2028 Y17.8795 
G01 X-69.3043 Y17.9809 
G01 X-69.3761 Y18.1052 
G01 X-69.4133 Y18.2439 
G01 X-69.4133 Y18.3874 
G01 X-69.3761 Y18.5261 
G01 X-69.3043 Y18.6503 
G01 X-68.9192 Y19.0355 
G01 X-68.9192 Y19.5720 
G01 X-69.0939 Y19.7468 
G01 X-69.1364 Y19.7468 
G01 X-69.3112 Y19.5720 
G01 X-69.3112 Y18.7379 
G01 X-69.3467 Y18.6052 
G01 X-69.4201 Y18.4750 
G01 X-69.5216 Y18.3735 
G01 X-70.0156 Y17.8795 
G01 X-70.1399 Y17.8077 
G01 X-70.2727 Y17.7721 
G01 X-70.9161 Y17.7706 
G01 X-71.0548 Y17.8077 
G01 X-71.1791 Y17.8795 
G01 X-71.6731 Y18.3735 
G01 X-71.7653 Y18.4657 
G01 X-71.8442 Y18.5956 
G01 X-71.8835 Y18.7379 
G01 X-71.8835 Y19.8696 
G01 X-71.8464 Y20.0082 
G01 X-71.7746 Y20.1325 
G01 X-71.6731 Y20.2340 
G01 X-71.1791 Y20.7281 
G00 Z2.0000 
G00 X-69.3043 Y24.1256 
G01 Z-0.3000 F100.00 
G01 X-69.2028 Y24.2270 F50.00 
G01 X-69.0786 Y24.2988 
G01 X-68.9399 Y24.3360 
G01 X-68.7964 Y24.3360 
G01 X-68.6578 Y24.2988 
G01 X-68.5335 Y24.2270 
G01 X-67.9472 Y23.6408 
G01 X-67.8661 Y23.5072 
G01 X-67.8290 Y23.3686 
G01 X-67.8290 Y22.2369 
G01 X-67.8661 Y22.0983 
G01 X-67.9379 Y21.9740 
G01 X-68.4320 Y21.4799 
G01 X-68.5335 Y21.3784 
G01 X-68.6578 Y21.3067 
G01 X-68.7964 Y21.2695 
G01 X-70.9161 Y21.2695 
G01 X-71.0548 Y21.3067 
G01 X-71.1763 Y21.3769 
G01 X-71.6731 Y21.8725 
G01 X-71.7746 Y21.9740 
G01 X-71.8464 Y22.0983 
G01 X-71.8835 Y22.2369 
G01 X-71.8835 Y23.3686 
G01 X-71.8464 Y23.5072 
G01 X-71.7746 Y23.6315 
G01 X-71.2806 Y24.1256 
G01 X-71.1791 Y24.2270 
G01 X-71.0548 Y24.2988 
G01 X-70.9161 Y24.3360 
G01 X-69.7845 Y24.3360 
G01 X-69.6459 Y24.2988 
G01 X-69.5216 Y24.2270 
G01 X-69.3467 Y24.0522 
G01 X-69.3043 Y24.1256 
G00 Z2.0000 
G00 X-68.7964 Y31.7665 
G01 Z-0.3000 F100.00 
G01 X-68.9399 Y31.7665 F50.00 
G01 X-69.0786 Y31.8036 
G01 X-69.2028 Y31.8754 
G01 X-69.3043 Y31.9769 
G01 X-69.3761 Y32.1012 
G01 X-69.4133 Y32.2398 
G01 X-69.4133 Y32.8774 
G01 X-69.3761 Y33.0161 
G01 X-69.3043 Y33.1404 
G01 X-69.2028 Y33.2418 
G01 X-69.0786 Y33.3136 
G01 X-68.9399 Y33.3508 
G01 X-68.3023 Y33.3508 
G01 X-68.1637 Y33.3136 
G01 X-68.0394 Y33.2418 
G01 X-67.9379 Y33.1404 
G01 X-67.8661 Y33.0161 
G01 X-67.8290 Y32.8774 
G01 X-67.8290 Y32.2398 
G01 X-67.8661 Y32.1012 
G01 X-67.9379 Y31.9769 
G01 X-68.0394 Y31.8754 
G01 X-68.1637 Y31.8036 
G01 X-68.3023 Y31.7665 
G01 X-68.4459 Y31.7665 
G01 X-68.7964 Y31.7665 
G00 Z2.0000 
G00 X-68.3023 Y39.0933 
G01 Z-0.3000 F100.00 
G01 X-68.1637 Y39.0561 F50.00 
G01 X-68.0394 Y38.9844 
G01 X-67.9379 Y38.8829 
G01 X-67.8661 Y38.7586 
G01 X-67.8290 Y38.6200 
G01 X-67.8290 Y38.4764 
G01 X-67.8661 Y38.3378 
G01 X-67.9379 Y38.2135 
G01 X-68.0394 Y38.1120 
G01 X-68.1637 Y38.0402 
G01 X-68.3023 Y38.0031 
G01 X-70.7933 Y38.0031 
G01 X-70.7933 Y37.4883 
G01 X-70.8305 Y37.3497 
G01 X-70.9022 Y37.2254 
G01 X-71.0037 Y37.1239 
G01 X-71.1280 Y37.0521 
G01 X-71.2667 Y37.0150 
G01 X-71.4102 Y37.0150 
G01 X-71.5488 Y37.0521 
G01 X-71.6731 Y37.1239 
G01 X-71.7746 Y37.2254 
G01 X-71.8464 Y37.3497 
G01 X-71.8835 Y37.4883 
G01 X-71.8835 Y39.6081 
G01 X-71.8464 Y39.7467 
G01 X-71.7746 Y39.8710 
G01 X-71.6731 Y39.9725 
G01 X-71.5488 Y40.0443 
G01 X-71.4102 Y40.0814 
G01 X-71.2667 Y40.0814 
G01 X-71.1280 Y40.0443 
G01 X-71.0037 Y39.9725 
G01 X-70.9022 Y39.8710 
G01 X-70.8305 Y39.7467 
G01 X-70.7933 Y39.6081 
G01 X-70.7933 Y39.0933 
G01 X-68.3023 Y39.0933 
G00 Z2.0000 
G00 X-65.3784 Y15.7176 
G01 Z-0.3000 F100.00 
G01 X-65.4852 Y15.7176 F50.00 
G01 X-65.5116 Y15.7247 
G01 X-65.5883 Y15.7452 
G01 X-65.6807 Y15.7986 
G01 X-66.0867 Y16.2046 
G01 X-66.1389 Y16.2950 
G01 X-66.1677 Y16.4001 
G01 X-66.1677 Y17.1678 
G01 X-66.1401 Y17.2709 
G01 X-66.0867 Y17.3634 
G01 X-65.6807 Y17.7693 
G01 X-65.5883 Y17.8227 
G01 X-65.5187 Y17.8413 
G01 X-65.4852 Y17.8503 
G01 X-64.0565 Y17.8503 
G01 X-63.9534 Y17.8227 
G01 X-63.8610 Y17.7693 
G01 X-63.5305 Y17.4388 
G01 X-63.4550 Y17.3634 
G01 X-63.4016 Y17.2709 
G01 X-63.3740 Y17.1678 
G01 X-63.3740 Y16.4001 
G01 X-63.4016 Y16.2970 
G01 X-63.4550 Y16.2046 
G01 X-63.7855 Y15.8741 
G01 X-63.8610 Y15.7986 
G01 X-63.9534 Y15.7452 
G01 X-64.0565 Y15.7176 
G01 X-64.1633 Y15.7176 
G01 X-65.3784 Y15.7176 
G00 Z2.0000 
G00 X-64.7769 Y18.7107 
G01 Z-0.3000 F100.00 
G01 X-64.7236 Y18.6183 F50.00 
G01 X-64.6959 Y18.5152 
G01 X-64.6959 Y18.4084 
G01 X-64.7236 Y18.3053 
G01 X-64.7769 Y18.2129 
G01 X-64.8524 Y18.1374 
G01 X-64.9448 Y18.0840 
G01 X-65.0480 Y18.0564 
G01 X-65.1547 Y18.0564 
G01 X-65.2578 Y18.0840 
G01 X-65.3502 Y18.1374 
G01 X-66.0112 Y18.7984 
G01 X-66.0867 Y18.8738 
G01 X-66.1401 Y18.9663 
G01 X-66.1677 Y19.0694 
G01 X-66.1677 Y19.1761 
G01 X-66.1401 Y19.2792 
G01 X-66.1201 Y19.3138 
G01 X-66.0867 Y19.3717 
G01 X-66.0124 Y19.4460 
G01 X-65.9188 Y19.5005 
G01 X-65.8157 Y19.5282 
G01 X-64.1848 Y19.5282 
G01 X-64.1848 Y19.8371 
G01 X-64.1572 Y19.9402 
G01 X-64.1038 Y20.0326 
G01 X-64.0283 Y20.1081 
G01 X-63.9359 Y20.1615 
G01 X-63.8328 Y20.1891 
G01 X-63.7260 Y20.1891 
G01 X-63.6229 Y20.1615 
G01 X-63.5305 Y20.1081 
G01 X-63.4550 Y20.0326 
G01 X-63.4016 Y19.9402 
G01 X-63.3740 Y19.8371 
G01 X-63.3740 Y18.4084 
G01 X-63.4016 Y18.3053 
G01 X-63.4550 Y18.2129 
G01 X-63.5305 Y18.1374 
G01 X-63.6229 Y18.0840 
G01 X-63.7260 Y18.0564 
G01 X-63.8328 Y18.0564 
G01 X-63.9359 Y18.0840 
G01 X-64.0283 Y18.1374 
G01 X-64.1038 Y18.2129 
G01 X-64.1572 Y18.3053 
G01 X-64.1848 Y18.4084 
G01 X-64.1848 Y18.7174 
G01 X-64.7836 Y18.7174 
G00 Z2.0000 
G00 X-64.1848 Y22.1759 
G01 Z-0.3000 F100.00 
G01 X-64.1572 Y22.2790 F50.00 
G01 X-64.1038 Y22.3714 
G01 X-64.0283 Y22.4469 
G01 X-63.9359 Y22.5003 
G01 X-63.8328 Y22.5279 
G01 X-63.7260 Y22.5279 
G01 X-63.6229 Y22.5003 
G01 X-63.5305 Y22.4469 
G01 X-63.4550 Y22.3714 
G01 X-63.4016 Y22.2790 
G01 X-63.3740 Y22.1759 
G01 X-63.3740 Y20.7472 
G01 X-63.4016 Y20.6441 
G01 X-63.4550 Y20.5517 
G01 X-63.5305 Y20.4762 
G01 X-63.6229 Y20.4228 
G01 X-63.7260 Y20.3952 
G01 X-63.8328 Y20.3952 
G01 X-63.9359 Y20.4228 
G01 X-64.0283 Y20.4762 
G01 X-65.2666 Y21.7144 
G01 X-65.3569 Y21.6241 
G01 X-65.3569 Y21.2990 
G01 X-65.1074 Y21.0495 
G01 X-65.0540 Y20.9571 
G01 X-65.0264 Y20.8540 
G01 X-65.0264 Y20.7472 
G01 X-65.0540 Y20.6441 
G01 X-65.1074 Y20.5517 
G01 X-65.1829 Y20.4762 
G01 X-65.2753 Y20.4228 
G01 X-65.3784 Y20.3952 
G01 X-65.4852 Y20.3952 
G01 X-65.5883 Y20.4228 
G01 X-65.6807 Y20.4762 
G01 X-66.0867 Y20.8821 
G01 X-66.1401 Y20.9746 
G01 X-66.1677 Y21.0777 
G01 X-66.1677 Y21.8454 
G01 X-66.1401 Y21.9485 
G01 X-66.0867 Y22.0410 
G01 X-65.6807 Y22.4469 
G01 X-65.5883 Y22.5003 
G01 X-65.5116 Y22.5208 
G01 X-65.4852 Y22.5279 
G01 X-65.0480 Y22.5279 
G01 X-64.9448 Y22.5003 
G01 X-64.8524 Y22.4469 
G01 X-64.7769 Y22.3714 
G01 X-64.1848 Y21.7793 
G01 X-64.1848 Y22.1759 
G00 Z2.0000 
G00 X-20.5230 Y9.5162 
G01 Z-0.3000 F100.00 
G01 X-22.1731 Y9.5162 F50.00 
G01 X-22.2194 Y9.5353 
G01 X-22.2548 Y9.5708 
G01 X-22.2740 Y9.6171 
G01 X-22.2740 Y9.6582 
G01 X-22.6893 Y9.6582 
G01 X-22.6979 Y9.6469 
G01 X-22.7151 Y9.6337 
G01 X-22.7305 Y9.6183 
G01 X-22.7494 Y9.6074 
G01 X-22.7666 Y9.5942 
G01 X-22.7867 Y9.5858 
G01 X-22.8056 Y9.5750 
G01 X-22.8266 Y9.5693 
G01 X-22.8467 Y9.5610 
G01 X-22.8683 Y9.5582 
G01 X-22.8893 Y9.5525 
G01 X-22.9111 Y9.5525 
G01 X-22.9327 Y9.5497 
G01 X-22.9542 Y9.5525 
G01 X-22.9760 Y9.5525 
G01 X-22.9970 Y9.5582 
G01 X-23.0186 Y9.5610 
G01 X-23.0387 Y9.5693 
G01 X-23.0597 Y9.5750 
G01 X-23.0786 Y9.5858 
G01 X-23.2532 Y9.6582 
G01 X-24.9596 Y9.6582 
G01 X-25.0821 Y9.6825 
G01 X-25.2720 Y9.6850 
G01 X-25.5344 Y9.5763 
G01 X-25.5533 Y9.5654 
G01 X-25.5743 Y9.5598 
G01 X-25.5944 Y9.5515 
G01 X-25.6160 Y9.5486 
G01 X-25.6370 Y9.5430 
G01 X-25.6588 Y9.5430 
G01 X-25.6803 Y9.5402 
G01 X-25.7019 Y9.5430 
G01 X-26.0997 Y9.5430 
G01 X-26.1257 Y9.5403 
G01 X-26.1429 Y9.5430 
G01 X-26.1603 Y9.5430 
G01 X-26.1855 Y9.5498 
G01 X-26.2113 Y9.5538 
G01 X-26.2272 Y9.5609 
G01 X-26.2440 Y9.5654 
G01 X-26.2666 Y9.5785 
G01 X-26.2904 Y9.5891 
G01 X-26.3040 Y9.6001 
G01 X-26.3191 Y9.6088 
G01 X-26.3375 Y9.6272 
G01 X-26.3578 Y9.6437 
G01 X-26.3680 Y9.6578 
G01 X-26.3804 Y9.6701 
G01 X-26.3934 Y9.6927 
G01 X-26.4088 Y9.7138 
G01 X-26.4150 Y9.7300 
G01 X-26.4237 Y9.7451 
G01 X-26.4305 Y9.7703 
G01 X-26.4398 Y9.7947 
G01 X-26.4416 Y9.8120 
G01 X-26.4461 Y9.8289 
G01 X-26.4461 Y9.8550 
G01 X-26.4489 Y9.8809 
G01 X-26.4461 Y9.8981 
G01 X-26.4461 Y9.9155 
G01 X-26.4394 Y9.9408 
G01 X-26.4353 Y9.9665 
G01 X-26.4282 Y9.9824 
G01 X-26.4237 Y9.9993 
G01 X-26.4107 Y10.0219 
G01 X-26.4000 Y10.0457 
G01 X-26.3891 Y10.0592 
G01 X-26.3804 Y10.0743 
G01 X-26.3619 Y10.0928 
G01 X-26.3455 Y10.1131 
G01 X-26.4840 Y10.0208 
G01 X-26.6707 Y9.9434 
G01 X-26.8689 Y9.9040 
G01 X-28.8711 Y9.9040 
G01 X-29.0693 Y9.9434 
G01 X-29.2560 Y10.0208 
G01 X-29.4240 Y10.1331 
G01 X-29.5669 Y10.2760 
G01 X-29.6792 Y10.4440 
G01 X-29.7566 Y10.6307 
G01 X-29.7960 Y10.8289 
G01 X-29.7960 Y11.0311 
G01 X-29.7566 Y11.2293 
G01 X-29.6792 Y11.4160 
G01 X-29.5669 Y11.5840 
G01 X-29.4240 Y11.7269 
G01 X-29.2560 Y11.8392 
G01 X-29.0693 Y11.9166 
G01 X-28.8711 Y11.9560 
G01 X-26.8689 Y11.9560 
G01 X-26.6831 Y11.9190 
G01 X-26.7019 Y11.9284 
G01 X-26.7261 Y11.9470 
G01 X-26.7516 Y11.9635 
G01 X-26.7707 Y11.9812 
G01 X-26.7892 Y12.0053 
G01 X-26.8096 Y12.0279 
G01 X-26.8155 Y12.0396 
G01 X-26.8235 Y12.0500 
G01 X-26.8351 Y12.0781 
G01 X-26.8489 Y12.1052 
G01 X-26.8516 Y12.1180 
G01 X-26.8566 Y12.1301 
G01 X-26.8606 Y12.1602 
G01 X-26.8669 Y12.1899 
G01 X-26.8662 Y12.2030 
G01 X-26.8680 Y12.2160 
G01 X-26.8640 Y12.2462 
G01 X-26.8624 Y12.2765 
G01 X-26.8584 Y12.2889 
G01 X-26.8566 Y12.3019 
G01 X-26.8450 Y12.3300 
G01 X-26.8356 Y12.3589 
G01 X-26.8285 Y12.3699 
G01 X-26.8235 Y12.3820 
G01 X-26.8050 Y12.4061 
G01 X-26.7884 Y12.4316 
G01 X-26.7707 Y12.4508 
G01 X-26.7466 Y12.4693 
G01 X-26.7240 Y12.4896 
G01 X-26.7123 Y12.4956 
G01 X-26.7019 Y12.5036 
G01 X-26.6739 Y12.5152 
G01 X-26.6468 Y12.5290 
G01 X-26.6340 Y12.5317 
G01 X-25.9560 Y12.8125 
G01 X-25.8823 Y12.8862 
G01 X-25.8073 Y12.9296 
G01 X-25.7235 Y12.9520 
G01 X-10.5945 Y12.9520 
G01 X-10.5107 Y12.9296 
G01 X-10.4357 Y12.8862 
G01 X-10.3744 Y12.8249 
G01 X-10.2982 Y12.7488 
G01 X-8.9718 Y12.7488 
G01 X-8.0338 Y13.6868 
G01 X-8.0338 Y15.0132 
G01 X-8.8966 Y15.8760 
G01 X-10.3734 Y15.8760 
G01 X-10.4357 Y15.8138 
G01 X-10.5107 Y15.7704 
G01 X-10.5945 Y15.7480 
G01 X-22.4641 Y15.7480 
G01 X-22.5479 Y15.7704 
G01 X-22.6229 Y15.8138 
G01 X-22.6842 Y15.8751 
G01 X-22.7276 Y15.9501 
G01 X-22.7500 Y16.0339 
G01 X-22.7500 Y17.0870 
G01 X-22.8855 Y17.4141 
G01 X-23.1358 Y17.6645 
G01 X-23.2888 Y17.7279 
G01 X-23.3099 Y17.7335 
G01 X-23.3287 Y17.7444 
G01 X-23.3488 Y17.7527 
G01 X-23.3661 Y17.7660 
G01 X-23.3849 Y17.7768 
G01 X-23.4003 Y17.7922 
G01 X-23.4176 Y17.8055 
G01 X-23.5140 Y17.8090 
G01 X-23.5140 Y17.5849 
G01 X-23.5332 Y17.5386 
G01 X-23.5686 Y17.5032 
G01 X-23.6149 Y17.4840 
G01 X-25.2651 Y17.4840 
G01 X-25.3114 Y17.5032 
G01 X-25.3468 Y17.5386 
G01 X-25.3660 Y17.5849 
G01 X-25.3660 Y18.9351 
G01 X-25.3468 Y18.9814 
G01 X-25.3119 Y19.0163 
G01 X-25.3925 Y18.9698 
G01 X-25.4762 Y18.9473 
G01 X-25.5629 Y18.9473 
G01 X-25.6466 Y18.9698 
G01 X-25.6699 Y18.9832 
G01 X-25.7217 Y19.0131 
G01 X-25.7830 Y19.0744 
G01 X-25.8412 Y19.1327 
G01 X-25.8846 Y19.2077 
G01 X-25.9070 Y19.2915 
G01 X-25.9070 Y21.1761 
G01 X-25.8846 Y21.2599 
G01 X-25.8412 Y21.3349 
G01 X-25.7799 Y21.3962 
G01 X-25.7049 Y21.4396 
G01 X-25.6211 Y21.4620 
G01 X-24.5273 Y21.4620 
G01 X-24.4436 Y21.4396 
G01 X-24.3685 Y21.3962 
G01 X-24.3082 Y21.3359 
G01 X-24.2895 Y21.3042 
G01 X-24.2639 Y21.2599 
G01 X-24.2414 Y21.1761 
G01 X-24.2414 Y21.0895 
G01 X-24.2639 Y21.0057 
G01 X-24.3072 Y20.9307 
G01 X-24.3840 Y20.8539 
G01 X-24.3840 Y20.6040 
G01 X-24.3820 Y20.8530 
G01 X-23.5643 Y21.6708 
G01 X-22.4078 Y21.6708 
G01 X-21.6458 Y20.9088 
G01 X-21.6648 Y20.9307 
G01 X-21.7082 Y21.0057 
G01 X-21.7306 Y21.0895 
G01 X-21.7306 Y21.1761 
G01 X-21.7082 Y21.2599 
G01 X-21.6837 Y21.3022 
G01 X-21.6648 Y21.3349 
G01 X-21.6035 Y21.3962 
G01 X-21.5285 Y21.4396 
G01 X-21.4447 Y21.4620 
G01 X-18.7719 Y21.4620 
G01 X-18.2581 Y21.6748 
G01 X-17.7879 Y22.1450 
G01 X-16.2757 Y23.6572 
G01 X-16.2006 Y23.7006 
G01 X-16.1169 Y23.7230 
G01 X-16.0557 Y23.7230 
G01 X-15.0880 Y24.6907 
G01 X-15.0880 Y26.0593 
G01 X-15.6997 Y26.6710 
G01 X-17.7803 Y26.6710 
G01 X-18.3920 Y26.0593 
G01 X-18.3920 Y25.5881 
G01 X-18.4144 Y25.5044 
G01 X-18.4578 Y25.4293 
G01 X-18.5191 Y25.3680 
G01 X-19.5633 Y24.3238 
G01 X-19.6384 Y24.2804 
G01 X-19.7221 Y24.2580 
G01 X-26.9481 Y24.2580 
G01 X-27.4619 Y24.0452 
G01 X-27.8183 Y23.6888 
G01 X-27.8934 Y23.6454 
G01 X-27.9771 Y23.6230 
G01 X-38.0323 Y23.6230 
G01 X-38.0539 Y23.6202 
G01 X-38.0755 Y23.6230 
G01 X-38.0973 Y23.6230 
G01 X-38.1183 Y23.6286 
G01 X-38.1399 Y23.6315 
G01 X-38.1600 Y23.6398 
G01 X-38.1810 Y23.6454 
G01 X-38.1998 Y23.6563 
G01 X-38.2199 Y23.6646 
G01 X-38.2372 Y23.6779 
G01 X-38.2560 Y23.6888 
G01 X-38.2714 Y23.7042 
G01 X-38.2887 Y23.7174 
G01 X-38.3020 Y23.7347 
G01 X-38.3173 Y23.7501 
G01 X-38.3282 Y23.7689 
G01 X-38.3415 Y23.7862 
G01 X-38.3498 Y23.8063 
G01 X-38.3607 Y23.8251 
G01 X-38.3663 Y23.8462 
G01 X-38.3746 Y23.8663 
G01 X-38.3775 Y23.8878 
G01 X-38.3831 Y23.9089 
G01 X-38.3831 Y23.9306 
G01 X-38.3859 Y23.9522 
G01 X-38.3831 Y23.9738 
G01 X-38.3831 Y23.9955 
G01 X-38.3775 Y24.0166 
G01 X-38.3746 Y24.0381 
G01 X-38.3663 Y24.0582 
G01 X-38.3607 Y24.0793 
G01 X-38.3498 Y24.0981 
G01 X-38.3420 Y24.1169 
G01 X-38.3420 Y24.2447 
G01 X-38.3196 Y24.3284 
G01 X-38.2762 Y24.4035 
G01 X-38.2149 Y24.4648 
G01 X-37.7705 Y24.9092 
G01 X-37.7705 Y26.5408 
G01 X-38.9242 Y27.6945 
G01 X-40.0620 Y27.6945 
G01 X-40.1457 Y27.7169 
G01 X-40.2208 Y27.7603 
G01 X-40.2821 Y27.8216 
G01 X-40.3254 Y27.8966 
G01 X-40.3479 Y27.9804 
G01 X-40.3479 Y28.0670 
G01 X-40.3254 Y28.1508 
G01 X-40.2821 Y28.2258 
G01 X-40.2208 Y28.2871 
G01 X-36.7167 Y31.7912 
G01 X-36.6416 Y31.8346 
G01 X-36.5579 Y31.8570 
G01 X-35.8303 Y31.8570 
G01 X-35.7466 Y31.8346 
G01 X-35.6715 Y31.7912 
G01 X-35.6102 Y31.7299 
G01 X-35.1658 Y31.2855 
G01 X-33.5342 Y31.2855 
G01 X-33.0084 Y31.8113 
G01 X-32.9828 Y31.8388 
G01 X-32.9411 Y31.8648 
G01 X-32.9093 Y31.8847 
G01 X-32.8986 Y31.8894 
G01 X-32.8623 Y31.8991 
G01 X-32.8265 Y31.9101 
G01 X-32.8148 Y31.9119 
G01 X-32.7773 Y31.9119 
G01 X-30.4185 Y31.9955 
G01 X-30.3752 Y31.9970 
G01 X-30.3377 Y31.9983 
G01 X-27.9909 Y31.9970 
G01 X-27.9693 Y31.9998 
G01 X-27.9477 Y31.9970 
G01 X-27.9260 Y31.9970 
G01 X-27.9049 Y31.9914 
G01 X-27.8834 Y31.9885 
G01 X-27.8633 Y31.9802 
G01 X-27.8422 Y31.9746 
G01 X-27.8234 Y31.9637 
G01 X-27.7775 Y31.9447 
G01 X-27.7410 Y31.9307 
G01 X-27.7025 Y31.9027 
G01 X-27.6709 Y31.8797 
G01 X-27.6409 Y31.8427 
G01 X-27.6164 Y31.8124 
G01 X-27.5970 Y31.7688 
G01 X-27.5882 Y31.7490 
G01 X-25.0276 Y31.7490 
G01 X-24.7986 Y31.9780 
G01 X-24.6947 Y32.0474 
G01 X-24.5793 Y32.0952 
G01 X-24.4569 Y32.1196 
G01 X-23.7691 Y32.1196 
G01 X-23.7691 Y32.1606 
G01 X-23.7499 Y32.2070 
G01 X-23.7144 Y32.2424 
G01 X-23.6681 Y32.2616 
G01 X-22.0180 Y32.2616 
G01 X-21.9717 Y32.2424 
G01 X-21.9362 Y32.2070 
G01 X-21.9171 Y32.1606 
G01 X-21.9171 Y31.9366 
G01 X-21.8233 Y31.9366 
G01 X-21.8034 Y31.9534 
G01 X-21.7880 Y31.9687 
G01 X-21.7691 Y31.9796 
G01 X-21.7519 Y31.9929 
G01 X-21.7318 Y32.0012 
G01 X-21.7129 Y32.0121 
G01 X-21.6919 Y32.0177 
G01 X-21.6036 Y32.0543 
G01 X-21.5848 Y32.0651 
G01 X-21.5638 Y32.0708 
G01 X-21.5437 Y32.0791 
G01 X-21.5221 Y32.0819 
G01 X-21.5011 Y32.0876 
G01 X-21.4793 Y32.0876 
G01 X-21.4577 Y32.0904 
G01 X-21.4362 Y32.0876 
G01 X-20.2503 Y32.0876 
G01 X-20.1666 Y32.0651 
G01 X-20.0915 Y32.0218 
G01 X-20.0302 Y31.9605 
G01 X-19.9185 Y31.8488 
G01 X-19.6775 Y31.7490 
G01 X-17.7125 Y31.7490 
G01 X-17.4715 Y31.8488 
G01 X-16.8638 Y32.4565 
G01 X-16.5350 Y33.2503 
G01 X-16.5350 Y34.1096 
G01 X-16.8638 Y34.9035 
G01 X-17.4715 Y35.5112 
G01 X-18.2653 Y35.8400 
G01 X-19.1246 Y35.8400 
G01 X-19.9185 Y35.5112 
G01 X-20.4803 Y34.9494 
G01 X-20.5554 Y34.9060 
G01 X-20.6391 Y34.8836 
G01 X-21.4362 Y34.8836 
G01 X-21.4577 Y34.8807 
G01 X-21.4793 Y34.8836 
G01 X-21.5011 Y34.8836 
G01 X-21.5221 Y34.8892 
G01 X-21.5437 Y34.8921 
G01 X-21.5638 Y34.9004 
G01 X-21.5848 Y34.9060 
G01 X-21.6037 Y34.9169 
G01 X-21.8660 Y35.0256 
G01 X-23.8201 Y35.0256 
G01 X-24.0825 Y34.9169 
G01 X-24.1013 Y34.9060 
G01 X-24.1224 Y34.9004 
G01 X-24.1425 Y34.8921 
G01 X-24.1640 Y34.8892 
G01 X-24.1850 Y34.8836 
G01 X-24.2068 Y34.8836 
G01 X-24.2284 Y34.8807 
G01 X-24.2500 Y34.8836 
G01 X-24.6278 Y34.8836 
G01 X-24.6494 Y34.8807 
G01 X-24.6710 Y34.8836 
G01 X-24.6927 Y34.8836 
G01 X-24.7137 Y34.8892 
G01 X-24.7353 Y34.8921 
G01 X-24.7554 Y34.9004 
G01 X-24.7765 Y34.9060 
G01 X-24.7953 Y34.9169 
G01 X-25.1094 Y35.0470 
G01 X-27.2906 Y35.0470 
G01 X-27.8234 Y34.8263 
G01 X-27.8422 Y34.8154 
G01 X-27.8632 Y34.8098 
G01 X-27.8834 Y34.8015 
G01 X-27.9049 Y34.7986 
G01 X-27.9260 Y34.7930 
G01 X-27.9477 Y34.7930 
G01 X-27.9693 Y34.7902 
G01 X-27.9909 Y34.7930 
G01 X-30.0607 Y34.7930 
G01 X-30.0764 Y34.7904 
G01 X-30.1039 Y34.7930 
G01 X-30.1315 Y34.7930 
G01 X-30.1468 Y34.7971 
G01 X-30.1627 Y34.7986 
G01 X-30.3815 Y34.7945 
G01 X-30.4247 Y34.7930 
G01 X-30.4622 Y34.7917 
G01 X-30.6781 Y34.7930 
G01 X-30.7027 Y34.7873 
G01 X-30.7179 Y34.7826 
G01 X-30.7455 Y34.7816 
G01 X-30.7728 Y34.7780 
G01 X-30.7886 Y34.7801 
G01 X-32.8305 Y34.7077 
G01 X-32.8737 Y34.7062 
G01 X-32.9112 Y34.7049 
G01 X-32.9229 Y34.7062 
G01 X-32.9591 Y34.7159 
G01 X-32.9957 Y34.7243 
G01 X-33.0066 Y34.7286 
G01 X-33.0391 Y34.7474 
G01 X-33.0722 Y34.7650 
G01 X-33.1082 Y34.7985 
G01 X-33.1356 Y34.8241 
G01 X-33.5342 Y35.2245 
G01 X-35.1658 Y35.2245 
G01 X-35.6715 Y34.7188 
G01 X-35.7466 Y34.6754 
G01 X-35.8303 Y34.6530 
G01 X-37.5081 Y34.6530 
G01 X-38.0219 Y34.4402 
G01 X-39.5994 Y32.8627 
G01 X-39.6339 Y32.8281 
G01 X-39.6607 Y32.8014 
G01 X-39.7357 Y32.7581 
G01 X-39.8195 Y32.7356 
G01 X-39.9061 Y32.7356 
G01 X-39.9899 Y32.7581 
G01 X-40.0649 Y32.8014 
G01 X-40.1262 Y32.8627 
G01 X-40.1696 Y32.9378 
G01 X-40.1920 Y33.0215 
G01 X-40.1920 Y34.8213 
G01 X-40.1696 Y34.9051 
G01 X-40.1454 Y34.9468 
G01 X-40.0000 Y35.2980 
G01 X-40.0000 Y36.9520 
G01 X-40.1355 Y37.2791 
G01 X-40.3859 Y37.5295 
G01 X-40.5388 Y37.5929 
G01 X-40.5599 Y37.5985 
G01 X-40.5787 Y37.6094 
G01 X-40.5988 Y37.6177 
G01 X-40.6161 Y37.6310 
G01 X-40.6349 Y37.6418 
G01 X-40.6503 Y37.6572 
G01 X-40.6676 Y37.6705 
G01 X-40.7640 Y37.6740 
G01 X-40.7640 Y37.4499 
G01 X-40.7832 Y37.4036 
G01 X-40.8186 Y37.3682 
G01 X-40.8649 Y37.3490 
G01 X-42.5151 Y37.3490 
G01 X-42.5614 Y37.3682 
G01 X-42.5968 Y37.4036 
G01 X-42.6160 Y37.4499 
G01 X-42.6160 Y37.6740 
G01 X-42.7097 Y37.6740 
G01 X-42.7297 Y37.6572 
G01 X-42.7451 Y37.6418 
G01 X-42.7639 Y37.6310 
G01 X-42.7812 Y37.6177 
G01 X-42.8013 Y37.6094 
G01 X-42.8201 Y37.5985 
G01 X-42.8411 Y37.5929 
G01 X-42.9941 Y37.5295 
G01 X-43.2409 Y37.2828 
G01 X-43.3159 Y37.2394 
G01 X-43.3997 Y37.2170 
G01 X-45.5856 Y37.2170 
G01 X-45.8229 Y37.1187 
G01 X-45.8417 Y37.1078 
G01 X-45.8627 Y37.1022 
G01 X-45.8829 Y37.0939 
G01 X-45.9044 Y37.0910 
G01 X-45.9255 Y37.0854 
G01 X-45.9472 Y37.0854 
G01 X-45.9688 Y37.0826 
G01 X-45.9904 Y37.0854 
G01 X-47.6538 Y37.0854 
G01 X-48.2236 Y36.8494 
G01 X-48.4832 Y36.5898 
G01 X-48.5583 Y36.5464 
G01 X-48.6420 Y36.5240 
G01 X-48.8340 Y36.5240 
G01 X-48.8340 Y36.2560 
G01 X-48.5999 Y36.2560 
G01 X-48.5536 Y36.2368 
G01 X-48.5182 Y36.2014 
G01 X-48.4990 Y36.1551 
G01 X-48.4990 Y34.7049 
G01 X-48.5182 Y34.6586 
G01 X-48.5536 Y34.6232 
G01 X-48.5999 Y34.6040 
G01 X-49.0490 Y34.6040 
G01 X-48.7421 Y34.6020 
G01 X-48.6981 Y34.6020 
G01 X-48.6604 Y34.5919 
G01 X-48.6143 Y34.5796 
G01 X-48.5709 Y34.5545 
G01 X-48.5393 Y34.5363 
G01 X-48.5008 Y34.4978 
G01 X-48.4702 Y34.4672 
G01 X-48.4497 Y34.4318 
G01 X-48.4268 Y34.3921 
G01 X-48.4156 Y34.3503 
G01 X-48.4044 Y34.3084 
G01 X-48.4044 Y34.2652 
G01 X-48.4043 Y34.2217 
G01 X-48.4155 Y34.1802 
G01 X-48.4268 Y34.1380 
G01 X-48.4495 Y34.0986 
G01 X-48.4701 Y34.0629 
G01 X-48.5006 Y34.0324 
G01 X-48.5314 Y34.0016 
G01 X-48.6598 Y33.8732 
G01 X-48.6722 Y33.8432 
G01 X-48.6779 Y33.8221 
G01 X-48.6887 Y33.8033 
G01 X-48.6971 Y33.7832 
G01 X-48.7103 Y33.7659 
G01 X-48.7212 Y33.7471 
G01 X-48.7366 Y33.7317 
G01 X-48.7498 Y33.7144 
G01 X-48.7671 Y33.7012 
G01 X-48.7825 Y33.6858 
G01 X-48.8013 Y33.6749 
G01 X-48.8186 Y33.6616 
G01 X-48.8387 Y33.6533 
G01 X-48.8576 Y33.6424 
G01 X-48.8786 Y33.6368 
G01 X-48.8987 Y33.6285 
G01 X-48.9203 Y33.6256 
G01 X-48.9413 Y33.6200 
G01 X-48.9630 Y33.6200 
G01 X-48.9846 Y33.6172 
G01 X-49.0062 Y33.6200 
G01 X-49.1213 Y33.6200 
G01 X-49.1429 Y33.6172 
G01 X-49.1645 Y33.6200 
G01 X-49.1863 Y33.6200 
G01 X-49.2073 Y33.6256 
G01 X-49.2289 Y33.6285 
G01 X-49.2490 Y33.6368 
G01 X-49.2700 Y33.6424 
G01 X-49.2888 Y33.6533 
G01 X-49.6019 Y33.7830 
G01 X-50.8640 Y33.7830 
G01 X-50.8640 Y33.4349 
G01 X-50.8832 Y33.3886 
G01 X-50.9186 Y33.3532 
G01 X-50.9649 Y33.3340 
G01 X-52.8151 Y33.3340 
G01 X-52.8614 Y33.3532 
G01 X-52.8968 Y33.3886 
G01 X-52.9160 Y33.4349 
G01 X-52.9160 Y34.8851 
G01 X-52.8968 Y34.9314 
G01 X-52.8614 Y34.9668 
G01 X-52.8151 Y34.9860 
G01 X-51.6356 Y34.9860 
G01 X-51.5872 Y35.0344 
G01 X-51.6207 Y35.0538 
G01 X-51.6820 Y35.1151 
G01 X-51.7254 Y35.1901 
G01 X-51.7310 Y35.2113 
G01 X-51.7478 Y35.2739 
G01 X-51.7478 Y35.3605 
G01 X-51.7317 Y35.4205 
G01 X-51.7254 Y35.4443 
G01 X-51.7056 Y35.4785 
G01 X-51.6820 Y35.5193 
G01 X-51.6207 Y35.5806 
G01 X-51.6055 Y35.5959 
G01 X-51.4700 Y35.9230 
G01 X-51.4700 Y38.0770 
G01 X-51.6055 Y38.4041 
G01 X-51.8558 Y38.6545 
G01 X-52.0526 Y38.7360 
G01 X-54.0674 Y38.7360 
G01 X-54.2641 Y38.6545 
G01 X-54.5145 Y38.4041 
G01 X-54.6500 Y38.0770 
G01 X-54.6500 Y37.3713 
G01 X-54.6724 Y37.2875 
G01 X-54.7158 Y37.2125 
G01 X-54.7771 Y37.1512 
G01 X-54.8521 Y37.1078 
G01 X-54.9359 Y37.0854 
G01 X-55.2738 Y37.0854 
G01 X-55.5613 Y36.9663 
G01 X-55.5801 Y36.9554 
G01 X-55.6011 Y36.9498 
G01 X-55.6213 Y36.9415 
G01 X-55.6428 Y36.9386 
G01 X-55.6639 Y36.9330 
G01 X-55.6856 Y36.9330 
G01 X-55.7072 Y36.9302 
G01 X-55.7288 Y36.9330 
G01 X-56.5081 Y36.9330 
G01 X-57.0264 Y36.7183 
G01 X-57.0452 Y36.7074 
G01 X-57.0662 Y36.7018 
G01 X-57.0863 Y36.6935 
G01 X-57.1079 Y36.6906 
G01 X-57.1289 Y36.6850 
G01 X-57.1507 Y36.6850 
G01 X-57.1723 Y36.6822 
G01 X-57.1939 Y36.6850 
G01 X-57.9656 Y36.6850 
G01 X-57.9871 Y36.6822 
G01 X-58.0087 Y36.6850 
G01 X-58.0305 Y36.6850 
G01 X-58.0515 Y36.6906 
G01 X-58.0695 Y36.6930 
G01 X-59.1867 Y36.6930 
G01 X-59.2705 Y36.7154 
G01 X-59.3455 Y36.7588 
G01 X-59.4068 Y36.8201 
G01 X-59.7689 Y37.1822 
G01 X-60.9812 Y37.1822 
G01 X-62.5722 Y35.5912 
G01 X-62.5722 Y35.3332 
G01 X-62.5694 Y35.3116 
G01 X-62.5722 Y35.2900 
G01 X-62.5722 Y35.2683 
G01 X-62.5778 Y35.2472 
G01 X-62.5807 Y35.2257 
G01 X-62.5890 Y35.2056 
G01 X-62.5946 Y35.1845 
G01 X-62.6055 Y35.1657 
G01 X-62.6138 Y35.1456 
G01 X-62.6271 Y35.1283 
G01 X-62.6380 Y35.1095 
G01 X-62.6534 Y35.0941 
G01 X-62.6666 Y35.0768 
G01 X-62.6839 Y35.0636 
G01 X-62.6993 Y35.0482 
G01 X-62.7181 Y35.0373 
G01 X-62.7354 Y35.0241 
G01 X-62.7555 Y35.0157 
G01 X-62.7743 Y35.0048 
G01 X-62.7954 Y34.9992 
G01 X-62.8660 Y34.9699 
G01 X-62.8660 Y32.2140 
G01 X-62.5010 Y32.2140 
G01 X-62.5010 Y32.3551 
G01 X-62.4818 Y32.4014 
G01 X-62.4464 Y32.4368 
G01 X-62.4001 Y32.4560 
G01 X-61.3499 Y32.4560 
G01 X-61.3036 Y32.4368 
G01 X-61.2682 Y32.4014 
G01 X-61.2490 Y32.3551 
G01 X-61.2490 Y31.6827 
G01 X-61.2410 Y31.6424 
G01 X-61.2410 Y31.5176 
G01 X-61.2490 Y31.4773 
G01 X-61.2490 Y30.8049 
G01 X-61.2682 Y30.7586 
G01 X-61.3036 Y30.7232 
G01 X-61.3499 Y30.7040 
G01 X-62.4001 Y30.7040 
G01 X-62.4464 Y30.7232 
G01 X-62.4818 Y30.7586 
G01 X-62.5010 Y30.8049 
G01 X-62.5010 Y30.8496 
G01 X-62.5030 Y30.8343 
G01 X-62.5030 Y30.8126 
G01 X-62.5086 Y30.7915 
G01 X-62.5115 Y30.7700 
G01 X-62.5198 Y30.7499 
G01 X-62.5254 Y30.7289 
G01 X-62.5363 Y30.7100 
G01 X-62.5446 Y30.6899 
G01 X-62.5579 Y30.6726 
G01 X-62.5688 Y30.6538 
G01 X-62.5842 Y30.6384 
G01 X-62.5974 Y30.6211 
G01 X-62.6147 Y30.6079 
G01 X-62.6301 Y30.5925 
G01 X-62.6489 Y30.5816 
G01 X-62.6662 Y30.5684 
G01 X-62.6863 Y30.5600 
G01 X-62.7051 Y30.5492 
G01 X-62.7261 Y30.5435 
G01 X-62.7841 Y30.5195 
G01 X-62.8660 Y30.4376 
G01 X-62.8660 Y28.2026 
G01 X-62.6024 Y27.9390 
G01 X-62.3940 Y27.9390 
G01 X-62.3868 Y27.9564 
G01 X-62.3514 Y27.9918 
G01 X-62.3051 Y28.0110 
G01 X-61.2549 Y28.0110 
G01 X-61.2086 Y27.9918 
G01 X-61.1732 Y27.9564 
G01 X-61.1540 Y27.9101 
G01 X-61.1540 Y27.4056 
G01 X-61.1025 Y27.3542 
G01 X-61.0332 Y27.2503 
G01 X-60.9854 Y27.1349 
G01 X-60.9610 Y27.0124 
G01 X-60.9610 Y26.3006 
G01 X-60.9317 Y26.2916 
G01 X-60.9129 Y26.2807 
G01 X-60.8928 Y26.2723 
G01 X-60.8755 Y26.2591 
G01 X-60.8566 Y26.2482 
G01 X-60.8413 Y26.2328 
G01 X-60.8240 Y26.2196 
G01 X-60.8107 Y26.2023 
G01 X-60.7954 Y26.1869 
G01 X-60.7845 Y26.1681 
G01 X-60.7712 Y26.1508 
G01 X-60.7629 Y26.1307 
G01 X-60.7520 Y26.1119 
G01 X-60.7464 Y26.0908 
G01 X-60.7408 Y26.0774 
G01 X-60.6375 Y25.9742 
G01 X-60.5682 Y25.8703 
G01 X-60.5204 Y25.7549 
G01 X-60.4960 Y25.6324 
G01 X-60.4960 Y25.4810 
G01 X-60.3549 Y25.4810 
G01 X-60.3086 Y25.4618 
G01 X-60.2732 Y25.4264 
G01 X-60.2540 Y25.3801 
G01 X-60.2540 Y24.3299 
G01 X-60.2732 Y24.2836 
G01 X-60.3086 Y24.2482 
G01 X-60.3549 Y24.2290 
G01 X-60.4960 Y24.2290 
G01 X-60.4960 Y23.5971 
G01 X-60.1770 Y23.4650 
G01 X-59.9338 Y23.4650 
G01 X-59.9122 Y23.4678 
G01 X-59.8907 Y23.4650 
G01 X-59.8689 Y23.4650 
G01 X-59.8479 Y23.4594 
G01 X-59.8263 Y23.4565 
G01 X-59.8062 Y23.4482 
G01 X-59.7852 Y23.4426 
G01 X-59.7663 Y23.4317 
G01 X-59.7462 Y23.4234 
G01 X-59.7289 Y23.4101 
G01 X-59.7101 Y23.3992 
G01 X-59.6947 Y23.3838 
G01 X-59.6774 Y23.3706 
G01 X-59.6642 Y23.3533 
G01 X-59.6488 Y23.3379 
G01 X-59.6379 Y23.3191 
G01 X-59.6247 Y23.3018 
G01 X-59.6164 Y23.2817 
G01 X-59.6055 Y23.2629 
G01 X-59.5998 Y23.2418 
G01 X-59.5915 Y23.2217 
G01 X-59.5887 Y23.2002 
G01 X-59.5830 Y23.1791 
G01 X-59.5830 Y23.1574 
G01 X-59.5802 Y23.1358 
G01 X-59.5830 Y23.1142 
G01 X-59.5830 Y23.0925 
G01 X-59.5887 Y23.0714 
G01 X-59.5915 Y23.0499 
G01 X-59.5998 Y23.0297 
G01 X-59.6055 Y23.0087 
G01 X-59.6164 Y22.9899 
G01 X-59.8180 Y22.5031 
G01 X-59.8180 Y22.1387 
G01 X-59.8404 Y22.0549 
G01 X-59.8838 Y21.9799 
G01 X-59.8995 Y21.9641 
G01 X-60.0350 Y21.6370 
G01 X-60.0350 Y20.1401 
G01 X-60.0574 Y20.0564 
G01 X-60.1008 Y19.9813 
G01 X-60.2402 Y19.8419 
G01 X-60.4530 Y19.3281 
G01 X-60.4530 Y15.5969 
G01 X-60.2402 Y15.0831 
G01 X-59.6208 Y14.4638 
G01 X-59.2119 Y14.0548 
G01 X-58.9402 Y13.9423 
G01 X-58.8714 Y13.8895 
G01 X-58.8218 Y13.8248 
G01 X-58.7855 Y13.7407 
G01 X-58.7743 Y13.6557 
G01 X-58.7855 Y13.5688 
G01 X-58.8186 Y13.4887 
G01 X-58.9740 Y13.1136 
G01 X-58.9740 Y12.4564 
G01 X-58.7225 Y11.8492 
G01 X-58.6517 Y11.7784 
G01 X-58.5914 Y11.7181 
G01 X-58.5726 Y11.6864 
G01 X-58.5471 Y11.6421 
G01 X-58.5246 Y11.5583 
G01 X-58.5246 Y11.4717 
G01 X-58.5471 Y11.3879 
G01 X-58.5904 Y11.3129 
G01 X-58.7225 Y11.1808 
G01 X-58.9740 Y10.5736 
G01 X-58.9740 Y9.9164 
G01 X-58.7225 Y9.3092 
G01 X-58.5904 Y9.1771 
G01 X-58.5471 Y9.1021 
G01 X-58.5246 Y9.0183 
G01 X-58.5246 Y8.9317 
G01 X-58.5471 Y8.8479 
G01 X-58.5715 Y8.8056 
G01 X-58.5904 Y8.7729 
G01 X-58.6517 Y8.7116 
G01 X-58.7225 Y8.6408 
G01 X-58.9740 Y8.0336 
G01 X-58.9740 Y7.3764 
G01 X-58.8249 Y7.0166 
G01 X-58.0104 Y6.2020 
G01 X-57.6506 Y6.0530 
G01 X-55.4694 Y6.0530 
G01 X-55.3817 Y6.0650 
G01 X-55.2958 Y6.0537 
G01 X-55.2738 Y6.0446 
G01 X-53.3362 Y6.0446 
G01 X-52.7664 Y6.2806 
G01 X-52.3302 Y6.7168 
G01 X-52.0942 Y7.2866 
G01 X-52.0942 Y7.9034 
G01 X-52.3302 Y8.4732 
G01 X-52.5199 Y8.6629 
G01 X-52.5632 Y8.7379 
G01 X-52.5856 Y8.8217 
G01 X-52.5856 Y8.9083 
G01 X-52.5632 Y8.9921 
G01 X-52.5387 Y9.0344 
G01 X-52.5199 Y9.0671 
G01 X-52.4586 Y9.1284 
G01 X-52.3302 Y9.2568 
G01 X-52.0942 Y9.8266 
G01 X-52.0942 Y10.4434 
G01 X-52.3302 Y11.0132 
G01 X-52.5199 Y11.2029 
G01 X-52.5632 Y11.2779 
G01 X-52.5856 Y11.3617 
G01 X-52.5856 Y11.4483 
G01 X-52.5632 Y11.5321 
G01 X-52.5387 Y11.5744 
G01 X-52.5199 Y11.6071 
G01 X-52.4586 Y11.6684 
G01 X-52.3302 Y11.7968 
G01 X-52.0942 Y12.3666 
G01 X-52.0942 Y12.9796 
G01 X-52.1051 Y13.0098 
G01 X-52.1134 Y13.0299 
G01 X-52.1163 Y13.0514 
G01 X-52.1219 Y13.0725 
G01 X-52.1219 Y13.0942 
G01 X-52.1248 Y13.1158 
G01 X-52.1219 Y13.1374 
G01 X-52.1219 Y13.1591 
G01 X-52.1163 Y13.1802 
G01 X-52.1134 Y13.2017 
G01 X-52.1051 Y13.2218 
G01 X-52.0995 Y13.2429 
G01 X-52.0886 Y13.2617 
G01 X-52.0803 Y13.2818 
G01 X-52.0670 Y13.2991 
G01 X-52.0561 Y13.3179 
G01 X-52.0408 Y13.3333 
G01 X-52.0275 Y13.3506 
G01 X-52.0102 Y13.3638 
G01 X-51.9949 Y13.3792 
G01 X-51.9760 Y13.3901 
G01 X-51.9587 Y13.4034 
G01 X-51.9386 Y13.4117 
G01 X-51.9198 Y13.4226 
G01 X-51.8988 Y13.4282 
G01 X-51.8787 Y13.4365 
G01 X-51.8571 Y13.4394 
G01 X-51.8361 Y13.4450 
G01 X-51.8143 Y13.4450 
G01 X-51.7927 Y13.4478 
G01 X-51.7711 Y13.4450 
G01 X-51.0366 Y13.4450 
G01 X-50.1290 Y14.3526 
G01 X-50.1290 Y15.7824 
G01 X-50.1210 Y15.8227 
G01 X-50.1210 Y16.4951 
G01 X-50.1018 Y16.5414 
G01 X-50.0664 Y16.5768 
G01 X-50.0201 Y16.5960 
G01 X-48.9699 Y16.5960 
G01 X-48.9236 Y16.5768 
G01 X-48.8882 Y16.5414 
G01 X-48.8690 Y16.4951 
G01 X-48.8690 Y16.3540 
G01 X-48.2371 Y16.3540 
G01 X-48.1050 Y16.6730 
G01 X-48.1050 Y16.6912 
G01 X-48.1050 Y16.7013 
G01 X-48.1050 Y16.7118 
G01 X-48.1068 Y16.7468 
G01 X-48.1050 Y16.7633 
G01 X-48.1010 Y16.7784 
G01 X-48.0959 Y16.7972 
G01 X-48.0885 Y16.8315 
G01 X-48.0826 Y16.8471 
G01 X-48.0745 Y16.8610 
G01 X-48.0650 Y16.8774 
G01 X-48.0490 Y16.9087 
G01 X-48.0392 Y16.9221 
G01 X-48.0278 Y16.9336 
G01 X-48.0144 Y16.9469 
G01 X-47.9909 Y16.9730 
G01 X-47.9779 Y16.9834 
G01 X-47.9643 Y16.9913 
G01 X-47.9539 Y16.9973 
G01 X-47.9181 Y17.0200 
G01 X-47.9029 Y17.0268 
G01 X-47.8885 Y17.0306 
G01 X-47.8709 Y17.0353 
G01 X-47.8356 Y17.0466 
G01 X-47.8191 Y17.0492 
G01 X-47.8056 Y17.0492 
G01 X-47.7817 Y17.0493 
G01 X-47.7490 Y17.0509 
G01 X-47.7325 Y17.0492 
G01 X-47.7211 Y17.0461 
G01 X-47.6925 Y17.0388 
G01 X-47.6643 Y17.0327 
G01 X-47.6487 Y17.0268 
G01 X-47.5942 Y17.0069 
G01 X-47.7179 Y17.0581 
G01 X-47.8467 Y17.1442 
G01 X-47.9562 Y17.2537 
G01 X-48.0423 Y17.3825 
G01 X-48.1016 Y17.5256 
G01 X-48.1318 Y17.6775 
G01 X-48.1318 Y17.8325 
G01 X-48.1016 Y17.9844 
G01 X-49.3103 Y19.2037 
G01 X-49.3230 Y19.2132 
G01 X-49.3544 Y19.2478 
G01 X-49.3875 Y19.2808 
G01 X-49.3962 Y19.2940 
G01 X-49.6000 Y19.5190 
G01 X-50.3201 Y19.5190 
G01 X-50.3664 Y19.5382 
G01 X-50.4018 Y19.5736 
G01 X-50.4210 Y19.6199 
G01 X-50.4210 Y19.6712 
G01 X-50.5846 Y19.6774 
G01 X-50.6236 Y19.6332 
G01 X-50.6699 Y19.6140 
G01 X-52.3201 Y19.6140 
G01 X-52.3664 Y19.6332 
G01 X-52.4018 Y19.6686 
G01 X-52.4210 Y19.7149 
G01 X-52.4210 Y19.7560 
G01 X-53.0715 Y19.7560 
G01 X-53.1433 Y19.6842 
G01 X-53.2721 Y19.5981 
G01 X-53.4152 Y19.5388 
G01 X-53.5671 Y19.5086 
G01 X-53.9979 Y19.5086 
G01 X-54.0416 Y19.4325 
G01 X-54.1028 Y19.3712 
G01 X-54.1779 Y19.3278 
G01 X-54.2616 Y19.3054 
G01 X-54.3484 Y19.3054 
G01 X-54.4321 Y19.3278 
G01 X-54.5071 Y19.3712 
G01 X-54.5684 Y19.4325 
G01 X-54.6118 Y19.5075 
G01 X-55.0429 Y19.5086 
G01 X-55.1948 Y19.5388 
G01 X-55.3379 Y19.5981 
G01 X-55.4667 Y19.6842 
G01 X-55.5124 Y19.7299 
G01 X-55.6242 Y19.8025 
G01 X-55.7190 Y19.8974 
G01 X-55.7190 Y19.8349 
G01 X-55.7382 Y19.7886 
G01 X-55.7736 Y19.7532 
G01 X-55.8199 Y19.7340 
G01 X-57.1701 Y19.7340 
G01 X-57.2164 Y19.7532 
G01 X-57.2518 Y19.7886 
G01 X-57.2710 Y19.8349 
G01 X-57.2710 Y21.4851 
G01 X-57.2518 Y21.5314 
G01 X-57.2164 Y21.5668 
G01 X-57.1701 Y21.5860 
G01 X-56.2775 Y21.5860 
G01 X-56.2624 Y21.5890 
G01 X-55.8176 Y21.5890 
G01 X-55.6951 Y21.5646 
G01 X-55.5797 Y21.5168 
G01 X-55.4758 Y21.4475 
G01 X-55.3875 Y21.3591 
G01 X-55.0987 Y21.0703 
G01 X-55.0429 Y21.0814 
G01 X-53.5671 Y21.0814 
G01 X-53.4152 Y21.0512 
G01 X-53.3496 Y21.0240 
G01 X-52.4210 Y21.0240 
G01 X-52.4210 Y21.0651 
G01 X-52.4018 Y21.1114 
G01 X-52.3664 Y21.1468 
G01 X-52.3201 Y21.1660 
G01 X-50.6699 Y21.1660 
G01 X-50.6236 Y21.1468 
G01 X-50.5882 Y21.1114 
G01 X-50.5690 Y21.0651 
G01 X-50.5690 Y20.9457 
G01 X-50.4210 Y20.9401 
G01 X-50.4210 Y20.9701 
G01 X-50.4018 Y21.0164 
G01 X-50.3664 Y21.0518 
G01 X-50.3201 Y21.0710 
G01 X-48.6699 Y21.0710 
G01 X-48.6236 Y21.0518 
G01 X-48.5882 Y21.0164 
G01 X-48.5690 Y20.9701 
G01 X-48.5690 Y20.2695 
G01 X-48.4356 Y20.1222 
G01 X-46.9397 Y18.6263 
G01 X-46.8871 Y18.6788 
G01 X-46.8121 Y18.7222 
G01 X-46.7284 Y18.7446 
G01 X-46.6416 Y18.7446 
G01 X-46.5579 Y18.7222 
G01 X-46.4828 Y18.6788 
G01 X-46.4216 Y18.6175 
G01 X-46.3782 Y18.5425 
G01 X-45.9471 Y18.5414 
G01 X-45.7952 Y18.5112 
G01 X-45.7140 Y18.4775 
G01 X-45.5876 Y18.5619 
G01 X-45.4260 Y18.6289 
G01 X-45.2545 Y18.6630 
G01 X-43.5555 Y18.6630 
G01 X-43.3840 Y18.6289 
G01 X-43.2224 Y18.5619 
G01 X-43.0769 Y18.4648 
G01 X-43.0262 Y18.4140 
G01 X-43.0025 Y18.4140 
G01 X-43.0113 Y18.4369 
G01 X-43.0262 Y18.4729 
G01 X-43.0325 Y18.5202 
G01 X-43.0376 Y18.5589 
G01 X-43.0313 Y18.6062 
G01 X-43.0262 Y18.6448 
G01 X-43.0080 Y18.6889 
G01 X-42.9931 Y18.7249 
G01 X-42.9640 Y18.7627 
G01 X-42.9403 Y18.7937 
G01 X-42.9025 Y18.8227 
G01 X-42.8715 Y18.8464 
G01 X-42.8275 Y18.8647 
G01 X-42.7072 Y18.9145 
G01 X-42.2425 Y19.3792 
G01 X-41.9910 Y19.9864 
G01 X-41.9910 Y20.6436 
G01 X-42.2425 Y21.2508 
G01 X-42.7072 Y21.7155 
G01 X-43.3144 Y21.9670 
G01 X-45.3061 Y21.9670 
G01 X-45.3899 Y21.9894 
G01 X-45.4649 Y22.0328 
G01 X-45.5262 Y22.0941 
G01 X-45.5696 Y22.1691 
G01 X-45.5920 Y22.2529 
G01 X-45.5920 Y22.5125 
G01 X-45.6848 Y22.7287 
G01 X-45.7019 Y22.7685 
G01 X-45.7182 Y22.8063 
G01 X-45.8084 Y23.0256 
G01 X-45.9769 Y23.1898 
G01 X-46.0080 Y23.2201 
G01 X-46.0374 Y23.2488 
G01 X-46.2048 Y23.4168 
G01 X-46.4232 Y23.5040 
G01 X-46.4633 Y23.5200 
G01 X-46.5017 Y23.5353 
G01 X-46.7206 Y23.6266 
G01 X-46.7424 Y23.6263 
G01 X-46.7857 Y23.6258 
G01 X-46.8269 Y23.6252 
G01 X-46.8710 Y23.6364 
G01 X-46.9109 Y23.6466 
G01 X-46.9505 Y23.6688 
G01 X-46.9865 Y23.6889 
G01 X-47.0190 Y23.7206 
G01 X-47.0486 Y23.7494 
G01 X-47.0718 Y23.7885 
G01 X-47.0929 Y23.8239 
G01 X-47.0994 Y23.8460 
G01 X-47.1190 Y23.8460 
G01 X-47.1190 Y23.8049 
G01 X-47.1382 Y23.7586 
G01 X-47.1736 Y23.7232 
G01 X-47.2199 Y23.7040 
G01 X-48.8701 Y23.7040 
G01 X-48.9164 Y23.7232 
G01 X-48.9518 Y23.7586 
G01 X-48.9710 Y23.8049 
G01 X-48.9710 Y23.8189 
G01 X-49.0086 Y23.7782 
G01 X-49.0549 Y23.7590 
G01 X-50.4051 Y23.7590 
G01 X-50.4514 Y23.7782 
G01 X-50.4868 Y23.8136 
G01 X-50.5060 Y23.8599 
G01 X-50.5060 Y25.5101 
G01 X-50.4868 Y25.5564 
G01 X-50.4514 Y25.5918 
G01 X-50.4051 Y25.6110 
G01 X-49.0549 Y25.6110 
G01 X-49.0086 Y25.5918 
G01 X-48.9732 Y25.5564 
G01 X-48.9540 Y25.5101 
G01 X-48.9540 Y25.3190 
G01 X-48.1876 Y25.3190 
G01 X-48.0651 Y25.2946 
G01 X-47.9718 Y25.2560 
G01 X-47.2199 Y25.2560 
G01 X-47.1736 Y25.2368 
G01 X-47.1382 Y25.2014 
G01 X-47.1190 Y25.1551 
G01 X-47.1190 Y25.1140 
G01 X-46.1276 Y25.1140 
G01 X-46.0051 Y25.0896 
G01 X-45.9866 Y25.0820 
G01 X-44.2971 Y25.0820 
G01 X-44.2134 Y25.0596 
G01 X-44.1383 Y25.0162 
G01 X-43.8861 Y24.7640 
G01 X-43.7526 Y24.7640 
G01 X-43.6301 Y24.7396 
G01 X-43.5147 Y24.6918 
G01 X-43.4108 Y24.6225 
G01 X-43.3225 Y24.5342 
G01 X-40.8709 Y22.0825 
G01 X-40.7825 Y21.9942 
G01 X-40.7132 Y21.8903 
G01 X-40.6654 Y21.7749 
G01 X-40.6410 Y21.6524 
G01 X-40.6410 Y18.9876 
G01 X-40.6654 Y18.8651 
G01 X-40.7132 Y18.7497 
G01 X-40.7825 Y18.6458 
G01 X-42.0525 Y17.3758 
G01 X-42.1408 Y17.2875 
G01 X-42.2447 Y17.2182 
G01 X-42.3601 Y17.1704 
G01 X-42.4826 Y17.1460 
G01 X-43.0162 Y17.1460 
G01 X-43.0769 Y17.0852 
G01 X-43.2224 Y16.9881 
G01 X-43.3840 Y16.9211 
G01 X-43.5555 Y16.8870 
G01 X-44.0250 Y16.8870 
G01 X-43.6285 Y16.8850 
G01 X-43.5448 Y16.8626 
G01 X-43.4697 Y16.8192 
G01 X-43.4084 Y16.7579 
G01 X-43.3651 Y16.6829 
G01 X-43.3426 Y16.5991 
G01 X-43.3426 Y16.5125 
G01 X-43.3651 Y16.4287 
G01 X-43.4084 Y16.3537 
G01 X-43.4697 Y16.2924 
G01 X-43.4985 Y16.2635 
G01 X-43.5292 Y16.2328 
G01 X-43.5588 Y16.2033 
G01 X-45.7800 Y14.0213 
G01 X-45.8111 Y13.9906 
G01 X-45.8488 Y13.9692 
G01 X-45.8865 Y13.9479 
G01 X-45.9292 Y13.9367 
G01 X-46.6444 Y13.7509 
G01 X-46.6591 Y13.7444 
G01 X-46.6862 Y13.7401 
G01 X-46.7127 Y13.7332 
G01 X-46.7288 Y13.7333 
G01 X-46.8915 Y13.7074 
G01 X-46.9163 Y13.6934 
G01 X-46.9485 Y13.6736 
G01 X-46.9589 Y13.6692 
G01 X-46.9955 Y13.6597 
G01 X-47.0228 Y13.6516 
G01 X-47.1542 Y13.5523 
G01 X-47.1653 Y13.5406 
G01 X-47.1887 Y13.5263 
